!!!COM: Beethoven, Ludwig van
!!!CDT: 1770///-1827///
!!!ODT: 1798///-1800///
!!!OTL: String Quartet No. 1 in F Major, Op. 18, No. 1
!!!OPS: Op. 18
!!!ONM: No. 1
!!!OMV: Mvmt. 4
!!!OMD: Allegro
!!!PDT: 1801///
!!!PPP: Vienna
!!!PPR: C. Haslinger qm Tobias
!!!ODE: Dem F&uuml;rsten von Lobkowitz gewidmet
!!!MPD: 1798///-1800///
**kern	**dynam	**kern	**dynam	**kern	**dynam	**kern	**dynam
*staff4	*staff4	*staff3	*staff3	*staff2	*staff2	*staff1	*staff1
*Icello	*Icello	*Iviola	*Iviola	*Ivioln	*Ivioln	*Ivioln	*Ivioln
*clefF4	*clefF4	*clefC3	*clefC3	*clefG2	*clefG2	*clefG2	*clefG2
*k[b-]	*k[b-]	*k[b-]	*k[b-]	*k[b-]	*k[b-]	*k[b-]	*k[b-]
*M2/4	*M2/4	*M2/4	*M2/4	*M2/4	*M2/4	*M2/4	*M2/4
*MM120	*MM120	*MM120	*MM120	*MM120	*MM120	*MM120	*MM120
=1-	=1-	=1-	=1-	=1-	=1-	=1-	=1-
2r	.	2r	.	2r	.	(24ff\LL	p
.	.	.	.	.	.	24ee\	.
.	.	.	.	.	.	24ff\JJ	.
.	.	.	.	.	.	24gg\LL	.
.	.	.	.	.	.	24ff\	.
.	.	.	.	.	.	24ee\JJ	.
.	.	.	.	.	.	24dd\LL	.
.	.	.	.	.	.	24cc\	.
.	.	.	.	.	.	24b-\JJ	.
.	.	.	.	.	.	24a/LL	.
.	.	.	.	.	.	24g/	.
.	.	.	.	.	.	24f/JJ)	.
=2	=2	=2	=2	=2	=2	=2	=2
8GG'/L	.	8C'/L	p	8B-'/L	p	8e'/L	.
8GG'/	p	8C'/	.	8B-'/	.	8e'/	.
8EE'/J	.	8C'/J	.	8B-'/J	.	8g'/J	.
8r	.	8r	.	8r	.	8r	.
=3	=3	=3	=3	=3	=3	=3	=3
2r	.	2r	.	2r	.	(24gg\LL	.
.	.	.	.	.	.	24ff#\	.
.	.	.	.	.	.	24gg\JJ	.
.	.	.	.	.	.	24aa\LL	.
.	.	.	.	.	.	24gg\	.
.	.	.	.	.	.	24ffn\JJ	.
.	.	.	.	.	.	24ee\LL	.
.	.	.	.	.	.	24dd\	.
.	.	.	.	.	.	24cc\JJ	.
.	.	.	.	.	.	24b-/LL	.
.	.	.	.	.	.	24a/	.
.	.	.	.	.	.	24g/JJ)	.
=4	=4	=4	=4	=4	=4	=4	=4
8AA'/L	.	8C'/L	.	8c'/L	.	8f'/L	.
8AA'/	.	8C'/	.	8c'/	.	8f'/	.
8FF'/J	.	8C'/J	.	8A'/J	.	8a'/J	.
8r	.	8r	.	8r	.	8r	.
=5	=5	=5	=5	=5	=5	=5	=5
8r	.	8r	.	8r	.	(24cc\LL	.
.	.	.	.	.	.	24bn\	.
.	.	.	.	.	.	24cc\	.
(8E/L	.	4c\	.	8g/L	.	24dd\	.
.	.	.	.	.	.	24cc\	.
.	.	.	.	.	.	24b-\JJ)	.
8F/)	.	.	.	8c/	.	(8a\L	.
8FF'/J	.	8c\	.	8a/J)	.	16ff\Jk)	.
.	.	.	.	.	.	16r	.
=6	=6	=6	=6	=6	=6	=6	=6
8r	.	8r	.	8r	.	(24cc\LL	.
.	.	.	.	.	.	24bn\	.
.	.	.	.	.	.	24cc\JJ	.
(8E/L	.	4c\	.	8g/L	.	24dd\LL	.
.	.	.	.	.	.	24cc\	.
.	.	.	.	.	.	24b-\JJ)	.
8F/)	.	.	.	8c/	.	(8a\L	.
8FF'/J	.	8c\	.	&(8a/J&)	.	16aa\Jk)	.
.	.	.	.	.	.	16r	.
=7	=7	=7	=7	=7	=7	=7	=7
8r	.	8r	.	8r	.	(24cc\LL	.
.	.	.	.	.	.	24bn\	.
.	.	.	.	.	.	24cc\JJ	.
(8E\L	.	4c\	.	8g/L	.	24dd\LL	.
.	.	.	.	.	.	24cc\)	.
.	.	.	.	.	.	24b-\JJ	.
8F\	.	.	.	8c/	.	(8a\L	.
8F#\J)	.	8d\)	.	8a/J	.	16ccc\Jk)	.
.	.	.	.	.	.	16r	.
=8	=8	=8	=8	=8	=8	=8	=8
8G'/L	.	8e\L	.	8g/L	.	(8cc\L	.
8GG'/	.	8f\	.	8bn/	.	16ee\L	.
.	.	.	.	.	.	16dd\J	.
8C'/J	.	&(8e\J&)	.	8g/J	.	8cc\J	.
8r	.	8r	.	8r	.	8r	.
=9	=9	=9	=9	=9	=9	=9	=9
2r	.	24f\LL	.	2r	.	2r	.
.	.	24e\	.	.	.	.	.
.	.	24f\JJ	.	.	.	.	.
.	.	24g\LL	.	.	.	.	.
.	.	24f\	.	.	.	.	.
.	.	24e\JJ	.	.	.	.	.
.	.	24d\LL	.	.	.	.	.
.	.	24c\	.	.	.	.	.
.	.	24B-\JJ	.	.	.	.	.
.	.	24A/LL	.	.	.	.	.
.	.	24G/	.	.	.	.	.
.	.	&(24F/JJ&)	.	.	.	.	.
=10	=10	=10	=10	=10	=10	=10	=10
8GG'/L	.	8E'/L	.	8c'/L	.	4r	.
8GG'/	.	8E'/	.	8c'/	.	.	.
8EE'/J	.	8G'/J	.	8b-'/J	.	8bb-'\L	.
8r	.	8r	.	8r	.	8bb-'\J	.
=11	=11	=11	=11	=11	=11	=11	=11
2r	.	24g\LL	.	2r	.	8ee\	.
.	.	24f#\	.	.	.	.	.
.	.	24g\JJ	.	.	.	.	.
.	.	24a\LL	.	.	.	8r	.
.	.	24g\	.	.	.	.	.
.	.	24fn\JJ	.	.	.	.	.
.	.	24e\LL	.	.	.	4r	.
.	.	24d\	.	.	.	.	.
.	.	24c\JJ	.	.	.	.	.
.	.	24B-/LL	.	.	.	.	.
.	.	24A/	.	.	.	.	.
.	.	&(24G/JJ&)	.	.	.	.	.
=12	=12	=12	=12	=12	=12	=12	=12
8AA'/L	.	8F'/L	.	8c'/L	.	4r	.
8AA'/	.	8F'/	.	8c'/	.	.	.
8FF'/J	.	8A'/J	.	8cc'/J	.	8ccc'\L	.
8r	.	8r	.	8r	.	8ccc'\J	.
=13	=13	=13	=13	=13	=13	=13	=13
8r	.	8r	.	8r	.	24cc\LL	.
.	.	.	.	.	.	24bn\	.
.	.	.	.	.	.	24cc\JJ	.
(8E/L	.	4c\	.	8g/	.	24dd\LL	.
.	.	.	.	.	.	24cc\	.
.	.	.	.	.	.	&(24b-\JJ&)	.
8F/)	.	.	.	8c/L	.	8a\L	.
8FF'/J	.	8c\	.	8a/J	.	&(16ff\Jk&)	.
.	.	.	.	.	.	16r	.
=14	=14	=14	=14	=14	=14	=14	=14
8r	.	8r	.	8r	.	24cc\LL	.
.	.	.	.	.	.	24bn\	.
.	.	.	.	.	.	24cc\JJ	.
(8E/L	.	4c\	.	8g/L	.	24dd\LL	.
.	.	.	.	.	.	24cc\	.
.	.	.	.	.	.	&(24b\JJ&)	.
8F/)	.	.	.	8c/	.	8a\L	.
8FF'/J	.	8c\	.	8a/J	.	&(16aa\Jk&)	.
.	.	.	.	.	.	16r	.
=15	=15	=15	=15	=15	=15	=15	=15
8r	.	8r	.	8r	.	24cc\LL	.
.	.	.	.	.	.	24b-\	.
.	.	.	.	.	.	24cc\JJ	.
(8E\L	.	4c\	.	8g/L	.	24dd\LL	.
.	.	.	.	.	.	24cc\	.
.	.	.	.	.	.	24b-\JJ	.
8F\)	.	.	.	8c/	.	&(8a'\L&)	.
8F#'\J	.	8A'/	.	8cc'/J	.	8eee-'\J	.
=16	=16	=16	=16	=16	=16	=16	=16
8G'\L	.	8B-'/L	.	8b-'/L	.	8ddd'\L	.
8C#'\	.	8G'/	.	8b-'/	.	8eee'\	.
8D'\	.	8F'/	.	8a'/	.	8fff'\	.
8BBn'\J	.	8d/J	.	8f'/J	.	8g'\J	.
=17	=17	=17	=17	=17	=17	=17	=17
4C'/	.	4c\	.	4f/	.	4a/	.
4CC'/	f	4C/	f	4B-/	f	4G/ 4e/	f
=18	=18	=18	=18	=18	=18	=18	=18
4FF'/	.	4F/	.	4A/	.	4A/ 4f/	.
4r	.	4r	.	4r	.	4r	.
=19	=19	=19	=19	=19	=19	=19	=19
2r	.	2r	.	4r	.	16A/LL	p
.	.	.	.	.	.	16c/	.
.	.	.	.	.	.	16g/	.
.	.	.	.	.	.	16f/JJ	.
.	.	.	.	16A/LL	.	16c/LL	.
.	.	.	.	16c/	p	16f/	.
.	.	.	.	16g/	.	16b-/	.
.	.	.	.	16f/JJ	.	&(16a/JJ&)	.
=20	=20	=20	=20	=20	=20	=20	=20
2r	.	16Bn/LL	p	4e/	.	4g/	.
.	.	16c/	.	.	.	.	.
.	.	16B/	.	.	.	.	.
.	.	16c/JJ	.	.	.	.	.
.	.	16B/LL	.	4r	.	4r	.
.	.	16c/	.	.	.	.	.
.	.	16G/	.	.	.	.	.
.	.	&(16E/JJ&)	.	.	.	.	.
=21	=21	=21	=21	=21	=21	=21	=21
2r	.	4C/	.	4r	.	16c/LL	.
.	.	.	.	.	.	16e/	.
.	.	.	.	.	.	16a/	.
.	.	.	.	.	.	16g/JJ	.
.	.	4r	.	16c/LL	.	16e/LL	.
.	.	.	.	16e/	.	16g/	.
.	.	.	.	16a/	.	16cc/	.
.	.	.	.	16g/JJ	.	&(16b-/JJ&)	.
=22	=22	=22	=22	=22	=22	=22	=22
(16E\LL	p	2r	.	4f/	.	4a/	.
16F\	.	.	.	.	.	.	.
16E\	.	.	.	.	.	.	.
16F\JJ	.	.	.	.	.	.	.
16E\LL	.	.	.	4r	.	4r	.
16F\	.	.	.	.	.	.	.
16C\	.	.	.	.	.	.	.
16AA\JJ)	.	.	.	.	.	.	.
=23	=23	=23	=23	=23	=23	=23	=23
4FF/	.	2r	.	2r	.	16c/LL	.
.	.	.	.	.	.	16f/	.
.	.	.	.	.	.	16b-/	.
.	.	.	.	.	.	16a/JJ	.
4r	.	.	.	.	.	16f/LL	.
.	.	.	.	.	.	16a/	.
.	.	.	.	.	.	16dd/	.
.	.	.	.	.	.	&(16cc/JJ&)	.
=24	=24	=24	=24	=24	=24	=24	=24
4r	.	4r	.	4r	.	16a\LL	.
.	.	.	.	.	.	16cc\	.
.	.	.	.	.	.	16gg\	.
.	.	.	.	.	.	16ff\JJ	.
8r	.	8r	.	8r	.	16cc\LL	.
.	.	.	.	.	.	16ff\	.
(8F\	.	[8c\	.	8a/	.	16bb-\	.
.	.	.	.	.	.	&(16aa\JJ&)	.
=25	=25	=25	=25	=25	=25	=25	=25
8E'\L)	.	8c'\L]	.	8g'/L	.	16gg\LL	.
.	.	.	.	.	.	16ff\	.
8C'\	.	8c'\	.	8e'/	.	16ee\	.
.	.	.	.	.	.	16dd\JJ	.
8E'\	.	8c'\	.	8g'/	.	16cc\LL	.
.	.	.	.	.	.	16cc#\	.
8C'\J	.	8c'\J	.	8e'/J	.	&(16dd\&)	.
.	.	.	.	.	.	16g\JJ	.
=26	=26	=26	=26	=26	=26	=26	=26
8F'/L	.	4.c\	.	4g/	.	4b-\	.
8FF'/	.	.	.	.	.	.	.
8F'/	.	.	.	8f/	.	&(8a/&)	.
8A'/J	f	8a'\	f	8a'/	f	8a'/	f
=27	=27	=27	=27	=27	=27	=27	=27
4.AA'/	.	4.A/	.	4.A/	.	4.A/	.
(24AA/LL	.	24A/LL	.	24A/LL	.	24A/LL	.
24BBn/	.	24B-/	.	24B-/	.	24B-/	.
24C#/JJ)	.	&(24c#/JJ&)	.	24c#/JJ	.	&(24c#/JJ&)	.
=28	=28	=28	=28	=28	=28	=28	=28
8D'\L	.	8d'/L	.	8d'/L	.	8d'/L	.
8E'\	.	8E'/	.	8e'/J	.	8e'/	.
8F'\	.	8F'/	.	8f'/L	.	8f'/	.
8G\J	.	8G'/J	.	8g'/J	.	8g'/J	.
=29	=29	=29	=29	=29	=29	=29	=29
8A'\L	.	8A'/L	.	8a'\L	.	8a/L	.
8Bn'\	.	8Bn'/	.	8bn'\	.	8bn'/J	.
8c'\	.	8c'/	.	8cc'\	.	8cc'\L	.
8c#'\J	.	8c#'/J	.	8cc#'\J	.	8cc#'\J	.
=30	=30	=30	=30	=30	=30	=30	=30
8D'\L	.	8d'\L	.	8dd'\L	.	8dd'\L	.
8E'\J	.	8e'\J	.	8ee'\J	.	8ee'\J	.
(Dq/LL	.	dq/LL	.	ddq/LL	.	ddq/LL	.
Eq/JJ)	.	&(eq/JJ&)	.	eeq/JJ	.	eeq/JJ	.
[4F\	.	[4f\	.	[4ff\	.	[4ff\	.
=31	=31	=31	=31	=31	=31	=31	=31
8f\L	.	8f\L]	.	8ff\L]	.	8ff\L]	.
8e\	.	&(8e\&)	.	8ee\	.	&(8ee\&)	.
(8d\	.	8d\	.	8dd\	.	8dd\	.
8c\J)	.	&(8c\J&)	.	8cc\J	.	&(8cc\J&)	.
=32	=32	=32	=32	=32	=32	=32	=32
(8B-\L	.	8B-/L	.	8b-/L	.	8b-/L	.
8A\)	.	&(8A/&)	.	8a/	.	8a/	.
(8G\	.	8G/	.	8g/	.	&(8g/&)	.
8F\J)	.	&(8F/J&)	.	8f/J	.	&(8f/J&)	.
=33	=33	=33	=33	=33	=33	=33	=33
(8E\L	.	8E/L	.	8e/L	.	8e/L	.
(8D\)	.	&(8D/&)	.	8d/	.	8d/J	.
8A'\	.	8A'/	.	8a'/	.	&(8a'/L&)	.
&(8AA'\J&)	.	8A'/J	.	8A'/J	.	&(8A'/J&)	.
=34	=34	=34	=34	=34	=34	=34	=34
4D\)	.	4D/	.	8d/	.	16d/LL	p
.	.	.	.	.	.	16f/	.
.	.	.	.	8r	.	16a/	.
.	.	.	.	.	.	16g/JJ	.
4r	.	4r	.	16d/LL	p	16f\LL	.
.	.	.	.	16f/	.	16a\	.
.	.	.	.	16a/	.	16ff\	.
.	.	.	.	16f/JJ	.	&(16dd\JJ&)	.
=35	=35	=35	=35	=35	=35	=35	=35
2r	.	16g#\LL	.	8e/	.	8cc#\	.
.	.	16a\	.	.	.	.	.
.	.	16g#\	.	8r	.	8r	.
.	.	16a\JJ	.	.	.	.	.
.	.	16g#\LL	.	4r	.	4r	.
.	.	16a\	.	.	.	.	.
.	.	&(16e\&)	.	.	.	.	.
.	.	16c#\JJ	.	.	.	.	.
=36	=36	=36	=36	=36	=36	=36	=36
2r	.	8A/	.	4r	.	16a\LL	.
.	.	.	.	.	.	16cc#\	.
.	.	8r	.	.	.	16ee\	.
.	.	.	.	.	.	16dd\JJ	.
.	.	4r	.	16a\LL	.	16cc#\LL	.
.	.	.	.	16cc#\	.	16ee\	.
.	.	.	.	16ff\	.	16aa\	.
.	.	.	.	16ee\JJ	.	&(16gg\JJ&)	.
=37	=37	=37	=37	=37	=37	=37	=37
(16c#\LL	p	2r	.	8dd\	.	8ff\	.
16d\	.	.	.	.	.	.	.
16c#\	.	.	.	8r	.	8r	.
16d\JJ	.	.	.	.	.	.	.
16c#\LL	.	.	.	4r	.	4r	.
16d\	.	.	.	.	.	.	.
16A\	.	.	.	.	.	.	.
16F\JJ)	.	.	.	.	.	.	.
=38	=38	=38	=38	=38	=38	=38	=38
8D\	.	2r	.	16A/LL	.	2r	.
.	.	.	.	16d/	.	.	.
8r	.	.	.	16f/	.	.	.
.	.	.	.	16e/JJ	.	.	.
4r	.	.	.	16d/LL	.	.	.
.	.	.	.	16f/	.	.	.
.	.	.	.	16b-/	.	.	.
.	.	.	.	16a/JJ	.	.	.
=39	=39	=39	=39	=39	=39	=39	=39
8BBn/	.	8Bn\ 8d\	.	8g#/	.	16ddd#\LL	.
.	.	.	.	.	.	16eee\	.
8r	.	8r	.	8r	.	16ddd#\	.
.	.	.	.	.	.	16eee\JJ	.
4r	.	4r	.	4r	.	16ddd#\LL	.
.	.	.	.	.	.	16eee\	.
.	.	.	.	.	.	16bbn\	.
.	.	.	.	.	.	&(16gg#\JJ&)	.
=40	=40	=40	=40	=40	=40	=40	=40
8G#\	.	8Bn/	.	16e/LL	.	8ee\	.
.	.	.	.	16g#/	.	.	.
8r	.	8r	.	16bn/	.	8r	.
.	.	.	.	16a/JJ	.	.	.
8E\	.	8B/	.	16g#\LL	.	4r	.
.	.	.	.	16b-\	.	.	.
8r	.	8r	.	16ee\	.	.	.
.	.	.	.	16dd\JJ	.	.	.
=41	=41	=41	=41	=41	=41	=41	=41
8AA\L	.	8c\L	.	16r	.	4r	.
.	.	.	.	16e/LL	.	.	.
8A\	.	&(8e\J&)	.	16dd/	.	.	.
.	.	.	.	16cc/JJ	.	.	.
8GG\	.	8r	.	16r	.	[4aa\	.
.	.	.	.	16a\LL	.	.	.
8G\J	.	8e\	.	16dd\	.	.	.
.	.	.	.	16cc#\JJ	.	.	.
=42	=42	=42	=42	=42	=42	=42	=42
8FF#/L	.	8r	.	16r	.	4aa\]	.
.	.	.	.	16a\LL	.	.	.
8F#/	.	8a\	.	16ee\	.	.	.
.	.	.	.	16dd\JJ	.	.	.
8DD/	.	8r	.	16r	.	&(4ff#\&)	.
.	.	.	.	16a\LL	.	.	.
8D/J	.	8d\	.	16dd\	.	.	.
.	.	.	.	16cc\JJ	.	.	.
=43	=43	=43	=43	=43	=43	=43	=43
(8GG/L	p	[2D/ 2Bn/	p	8bn\	p	4.gg\	p
8DD/	.	.	.	8r	.	.	.
8FF#/	.	.	.	4r	.	.	.
8GG/J	.	.	.	.	.	32aa\LLL	.
.	.	.	.	.	.	32gg\	.
.	.	.	.	.	.	32ff#\	.
.	.	.	.	.	.	&(32ee\JJJ&)	.
=44	=44	=44	=44	=44	=44	=44	=44
8AA/L	.	2D/_ 2c/	.	8r	.	8dd'\L	.
8DD/	.	.	.	8d'/L	.	&(8dd'\&)	.
8GG#/	.	.	.	8d'/	.	8dd'\	.
8AA/J)	.	.	.	8d'/J	.	8dd'\J	.
=45	=45	=45	=45	=45	=45	=45	=45
(8BBn/L	.	&(8D/]&) 8d/	.	4.g/	.	4dd\	.
8DD/	.	8D/L	.	.	.	.	.
8AA/	.	8F#/	.	.	.	4r	.
8BB/J	.	8G/J	.	32a/LLL	.	.	.
.	.	.	.	32g/	.	.	.
.	.	.	.	32f#/	.	.	.
.	.	.	.	32e/JJJ	.	.	.
=46	=46	=46	=46	=46	=46	=46	=46
8C/L	.	8A/L	.	8d'/L	.	8r	.
8DD/	.	8D/	.	8d'/	.	8dd'\L	.
8EE/	.	8G/	.	8d'/	.	8dd'\	.
8FF#/J)	.	&(8A/J&)	.	8d'/J	.	8dd'\J	.
=47	=47	=47	=47	=47	=47	=47	=47
(8GG/L	.	8Bn/L	.	4d/	.	16aa\LL	.
.	.	.	.	.	.	16gg\	.
8DD/	.	8D/	.	.	.	16ff#\	.
.	.	.	.	.	.	16gg\JJ	.
8FF#/	.	8A/	.	4r	.	16aa\LL	.
.	.	.	.	.	.	16gg\	.
8GG/J	.	&(8B/J&)	.	.	.	16ff#\	.
.	.	.	.	.	.	&(16ee\JJ&)	.
=48	=48	=48	=48	=48	=48	=48	=48
8AA/L	.	8c/L	.	8r	.	8dd'\L	.
8DD/	.	8D/	.	8d'/L	.	&(8dd'\&)	.
8GG#/	.	8Bn/	.	8d'/	.	8dd'\	.
8AA/J	.	&(8c/J&)	.	8d'/J	.	8dd'\J	.
=49	=49	=49	=49	=49	=49	=49	=49
8BBn/L)	.	8d\	.	16a/LL	.	8dd\	.
.	.	.	.	16g/	.	.	.
8GG/	.	4Bn/	.	16f#/	.	8r	.
.	.	.	.	16g/JJ	.	.	.
8BB/	.	.	.	16a/LL	.	4r	.
.	.	.	.	16g/	.	.	.
&(8D/J&)	.	[8B/	.	16fn/	.	.	.
.	.	.	.	16e-/JJ	.	.	.
=50	=50	=50	=50	=50	=50	=50	=50
(8G/L	.	8B-\L	.	8f'/L	.	8r	.
8GG/	.	8Bn\	.	8f'/J	.	8gg'\L	.
8AA/	.	8c\	.	8f'/L	.	8gg'\	.
8BBn/J)	.	&(8d\J&)	.	8f'/J	.	8gg'\J	.
=51	=51	=51	=51	=51	=51	=51	=51
(8C/L	p	[2G/ 2e/	p	4e/	p	4.ccc\	p
8GG/	.	.	.	.	.	.	.
8BBn/	.	.	.	4r	.	.	.
8C/J	.	.	.	.	.	32ddd\LLL	.
.	.	.	.	.	.	32ccc\	.
.	.	.	.	.	.	32bbn\	.
.	.	.	.	.	.	&(32aa\JJJ&)	.
=52	=52	=52	=52	=52	=52	=52	=52
8D/L	.	[2G\ 2f\	.	8r	.	8gg'\L	.
8GG/	.	.	.	8g'/L	.	8gg'\	.
8C/	.	.	.	8g'/	.	8gg'\	.
8D/J)	.	.	.	8g'/J	.	8gg'\J	.
=53	=53	=53	=53	=53	=53	=53	=53
(8E'/L	.	8G\] 8g\	.	4.cc\	.	4gg'\	.
8GG/	.	8G/L	.	.	.	.	.
8D/	.	8Bn/	.	.	.	4r	.
8E/J	.	8c/J	.	32dd\LLL	.	.	.
.	.	.	.	32cc\	.	.	.
.	.	.	.	32bn\	.	.	.
.	.	.	.	32a\JJJ	.	.	.
=54	=54	=54	=54	=54	=54	=54	=54
8F/L	.	8d/L	.	8g'/L	.	8r	.
8GG/	.	8G/	.	8g'/	.	8gg'\L	.
8AA/	.	8c/	.	8g'/	.	8gg'\	.
8BBn/J)	.	&(8d/J&)	.	8g'/J	.	8gg'\J	.
=55	=55	=55	=55	=55	=55	=55	=55
(8C/L	p	8e/L	p	4g/	p	16ddd\LL	p
.	.	.	.	.	.	16ccc\	.
8GG/	.	8G/	.	.	.	16bbn\	.
.	.	.	.	.	.	16ccc\JJ	.
8BBn/	.	8d/	.	4r	.	16ddd\LL	.
.	.	.	.	.	.	16ccc\	.
8C/J	.	8e/J	.	.	.	16bb\	.
.	.	.	.	.	.	&(16aa\JJ&)	.
=56	=56	=56	=56	=56	=56	=56	=56
8D/L	.	8f\L	.	8r	.	8gg'\L	.
8GG/	.	8G\	.	8g'/L	.	8gg'\	.
8C#/	.	8e\	.	8g'/	.	8gg'\	.
8D/J)	.	&(8f\J&)	.	8g'/J	.	8gg'\J	.
=57	=57	=57	=57	=57	=57	=57	=57
(8E/L	.	8g\L	.	16dd\LL	.	4gg\	.
.	.	.	.	16cc\	.	.	.
8GG/	.	8G\	.	16bn\	.	.	.
.	.	.	.	16cc\JJ	.	.	.
8D/	.	8Bn\	.	16dd\LL	.	4r	.
.	.	.	.	16cc\	.	.	.
8E/J	.	&(8c\J&)	.	16b\	.	.	.
.	.	.	.	16a\JJ	.	.	.
=58	=58	=58	=58	=58	=58	=58	=58
8F/L	.	8d/L	.	8g'/L	.	8r	.
8GG/	.	8G/	.	8g'/	.	8gg'\L	.
8AA/	.	8c/	.	8g'/	.	8gg'\	.
8BBn/J)	.	&(8d/J&)	.	8g'/J	.	8gg'\J	.
=59	=59	=59	=59	=59	=59	=59	=59
8C/	.	8e\	.	8g/	.	16aa\LL	.
.	.	.	.	.	.	16gg\	p
8r	p	8r	p	8r	p	16ff#\	.
.	.	.	.	.	.	16gg\JJ	.
4r	.	8r	.	8r	.	16aa\LL	.
.	.	.	.	.	.	16gg\	.
.	.	8Bn/	.	[8g/	.	16ffn\	.
.	.	.	.	.	.	&(16dd\JJ&)	.
=60	=60	=60	=60	=60	=60	=60	=60
2r	.	&(8c\&)	.	8g/L]	.	16ff\LL	.
.	.	.	.	.	.	16ee\	.
.	.	8r	.	8cc/J	.	16dd#\	.
.	.	.	.	.	.	16ee\JJ	.
.	.	8r	.	8r	.	16ff\LL	.
.	.	.	.	.	.	16ee\	.
.	.	8G#/	.	[8e/	.	16ddn\	.
.	.	.	.	.	.	&(16bn\JJ&)	.
=61	=61	=61	=61	=61	=61	=61	=61
2r	.	&(8A/&)	.	8e/L]	.	16dd\LL	.
.	.	.	.	.	.	16cc\	.
.	.	8r	.	8a/J	.	16bn\	.
.	.	.	.	.	.	16cc\JJ	.
.	.	8r	.	8r	.	16dd\LL	.
.	.	.	.	.	.	16cc\	.
.	.	8E/	.	[8c/	.	16b-\	.
.	.	.	.	.	.	&(16g\JJ&)	.
=62	=62	=62	=62	=62	=62	=62	=62
2r	.	&(8F/&)	.	8c/]	.	16g#/LL	.
.	.	.	.	.	.	16a/	.
.	.	8r	.	8r	.	16b-/	.
.	.	.	.	.	.	16bn/JJ	.
.	.	4r	.	4r	.	16cc\LL	.
.	.	.	.	.	.	16cc#\	.
.	.	.	.	.	.	16dd\	.
.	.	.	.	.	.	16ee-\JJ	.
=63	=63	=63	=63	=63	=63	=63	=63
8F'\	.	8r	.	8r	.	16ee\LL	.
.	.	.	.	.	.	16ff\	.
8r	.	8c\	.	8a/	.	16ff#\	.
.	.	.	.	.	.	16gg\JJ	.
8F'\	.	8r	.	8r	.	16gg#\LL	.
.	.	.	.	.	.	16aa\	.
8r	.	8f\	.	8a/	.	&(16ffn\&)	.
.	.	.	.	.	.	16dd\JJ	.
=64	=64	=64	=64	=64	=64	=64	=64
8G'\	.	8r	.	8r	.	16dd\LL	.
.	.	.	.	.	.	&(16cc\&)	.
8r	.	8e\	.	8g/	.	16cc'\	.
.	.	.	.	.	.	16cc'\JJ	.
8GG'/	.	8r	.	8r	.	16cc\LL	.
.	.	.	.	.	.	&(16bn\&)	.
8r	.	8d\	.	8f/	.	16b'\	.
.	.	.	.	.	.	16b'\JJ	.
=65	=65	=65	=65	=65	=65	=65	=65
4r	.	2r	.	16a/LL	.	4r	.
.	.	.	.	16g/	.	.	.
.	.	.	.	16f#/	.	.	.
.	.	.	.	16g/JJ	.	.	.
8r	.	.	.	16a/LL	.	8r	.
.	.	.	.	16g/	.	.	.
(8BBn/	.	.	.	16fn/	.	[8gg\	.
.	.	.	.	16d/JJ	.	.	.
=66	=66	=66	=66	=66	=66	=66	=66
8C/)	.	8r	.	16f/LL	.	8gg\L]	.
.	.	.	.	16e/	.	.	.
8r	.	8G/L	.	16d#/	.	&(8ccc\J&)	.
.	.	.	.	16e/JJ	.	.	.
8r	.	&(8c/J&)	.	16f/LL	.	8r	.
.	.	.	.	16e/	.	.	.
(8GG#/	.	8r	.	16dn/	.	8ee\	.
.	.	.	.	16Bn/JJ	.	.	.
=67	=67	=67	=67	=67	=67	=67	=67
8AA/)	.	8r	.	8c/	.	16ddd\LL	.
.	.	.	.	.	.	16ccc\	.
8r	.	8E/L	.	8r	.	16bbn\	.
.	.	.	.	.	.	16ccc\JJ	.
8r	.	&(8A/J&)	.	8r	.	16ddd\LL	.
.	.	.	.	.	.	16ccc\	.
(8E\	.	8r	.	[8cc\	.	16bb-\	.
.	.	.	.	.	.	&(16gg\JJ&)	.
=68	=68	=68	=68	=68	=68	=68	=68
8F\)	.	8r	.	8cc\L]	.	16bb-\LL	.
.	.	.	.	.	.	16aa\	.
8r	.	8c\L	.	8ff\J	.	16gg#\	.
.	.	.	.	.	.	16aa\JJ	.
8r	.	&(8f\J&)	.	8r	.	16bb-\LL	.
.	.	.	.	.	.	16aa\	.
(8C#/	.	[8A/	.	[8a/	.	16ggn\	.
.	.	.	.	.	.	&(16ee\JJ&)	.
=69	=69	=69	=69	=69	=69	=69	=69
8D\)	.	8A\L]	.	8a\L]	.	16gg\LL	.
.	.	.	.	.	.	16ff\	.
8r	.	&(8f\&)	.	8aa\	.	16aa\	.
.	.	.	.	.	.	16gg\JJ	.
4r	.	8f'\	.	8aa'\	.	16ff\LL	.
.	.	.	.	.	.	16ee\	.
.	.	&(8f'\J&)	.	8aa'\J	.	16dd\	.
.	.	.	.	.	.	&(16cc\JJ&)	.
=70	=70	=70	=70	=70	=70	=70	=70
8GG/L	.	4f\	.	4aa\	.	16bn\LL	.
.	.	.	.	.	.	16cc\	.
8G/	.	.	.	.	.	16dd\	.
.	.	.	.	.	.	16ee\JJ	.
8G/	.	8e\L	.	8gg\L	.	16ff\LL	.
.	.	.	.	.	.	16gg\	.
8G/J	.	&(8d\J&)	.	8ff\J	.	16aa\	.
.	.	.	.	.	.	&(16bbn\JJ&)	.
=71	=71	=71	=71	=71	=71	=71	=71
8C\L	p	8c\	p	8ee'\	p	16ccc'\LL	p
.	.	.	.	.	.	16gg\	.
(8c\	.	4g\	.	8ee\L	.	16eee\	.
.	.	.	.	.	.	&(16ccc\JJ&)	.
8d\	.	.	.	8ff\	.	16ccc\LL	.
.	.	.	.	.	.	16bbn\	.
(8f\J)	.	[8g\	.	8dd\J	.	16aa\	.
.	.	.	.	.	.	&(16bb\JJ&)	.
=72	=72	=72	=72	=72	=72	=72	=72
8e'\L)	.	8g\]	.	8gg'\	.	16ccc'\LL	.
.	.	.	.	.	.	16gg\	.
(8c\	.	4g\	.	8ee\L	.	16eee\	.
.	.	.	.	.	.	&(16ccc\JJ&)	.
8d\	.	.	.	8ff\	.	16ccc\LL	.
.	.	.	.	.	.	16bbn\	.
8f\J	.	[8g\	.	8dd\J	.	16aa\	.
.	.	.	.	.	.	&(16bb\JJ&)	.
=73	=73	=73	=73	=73	=73	=73	=73
8e'\L)	.	8g\L]	.	8gg\L	.	16ccc\LL	.
.	.	.	.	.	.	16eee\	.
8c'\J	.	8g\	.	8ee\	.	16gg\	.
.	.	.	.	.	.	&(16ccc\JJ&)	.
8r	.	8a\	.	8cc\	.	16aa\LL	.
.	.	.	.	.	.	16ccc\	.
8F\	.	8f\J	.	8a\J	.	16ff\	.
.	.	.	.	.	.	&(16aa\JJ&)	.
=74	=74	=74	=74	=74	=74	=74	=74
8r	.	8e\L	.	8g/L	.	16ee\LL	.
.	.	.	.	.	.	16gg\	.
8G\	.	8c\	.	8e/	.	16cc\	.
.	.	.	.	.	.	&(16ee\JJ&)	.
8r	.	8d\	.	8f/	.	16dd\LL	.
.	.	.	.	.	.	16ff\	.
8GG/	.	&(8Bn\J&)	.	8d/J	.	16bn\	.
.	.	.	.	.	.	&(16dd\JJ&)	.
=75	=75	=75	=75	=75	=75	=75	=75
8r	.	16c'/LL	.	16e-'/LL	.	8cc\	.
.	.	16G/	.	16g/	.	.	.
(8C/L	.	16e-/	.	16ee-/	.	[4.gg\	.
.	.	&(16c/JJ&)	.	16cc/JJ	.	.	.
8D/	.	16c/LL	.	16cc\LL	.	.	.
.	.	16Bn/	.	16bn\	.	.	.
8GG/J)	.	16A/	.	16a\	.	.	.
.	.	&(16B/JJ&)	.	16b\JJ	.	.	.
=76	=76	=76	=76	=76	=76	=76	=76
8E-'/L	.	16c'/LL	.	16cc'\LL	.	8gg\]	.
.	.	16G/	.	16g\	.	.	.
(8C/	.	16e-/	.	16ee-\	.	[4.gg\	.
.	.	&(16c/JJ&)	.	16cc\JJ	.	.	.
8D/	.	16c/LL	.	16cc\LL	.	.	.
.	.	16Bn/	.	16bn\	.	.	.
8GG/J)	.	16A/	.	16a\	.	.	.
.	.	&(16B/JJ&)	.	16b\JJ	.	.	.
=77	=77	=77	=77	=77	=77	=77	=77
8E-'\L	.	8c/L	.	8cc/L	.	16gg\LL]	.
.	.	.	.	.	.	16ccc\	.
8C'\J	.	16G/L	.	16e-/L	.	16ee-\	.
.	.	16E-/JJ	.	16c/JJ	.	&(16gg\JJ&)	.
8r	.	16A-/LL	.	16f/LL	.	16ff\LL	.
.	.	&(16F/JJ&)	.	16d/JJ	.	16aa-\	.
8FF/	.	8r	.	8r	.	16dd\	.
.	.	.	.	.	.	&(16ff\JJ&)	.
=78	=78	=78	=78	=78	=78	=78	=78
8r	.	16G/LL	.	16e-/LL	.	16ee-\LL	.
.	.	&(16E-/JJ&)	.	16c/JJ	.	16gg\	.
8GG/	.	8r	.	8r	.	16cc\	.
.	.	.	.	.	.	&(16ee-\JJ&)	.
8r	.	16F/LL	.	16d/LL	.	16dd\LL	.
.	.	&(16D/JJ&)	.	16Bn/JJ	.	16ff\	.
8GG/	.	8r	.	8r	.	16bn\	.
.	.	.	.	.	.	16dd\JJ	.
=79	=79	=79	=79	=79	=79	=79	=79
4C/	p	16E-'/LL	p	24g/LL	p	4.cc\	p
.	.	.	.	24f#/	.	.	.
.	.	16G'/	.	.	.	.	.
.	.	.	.	24g/JJ	.	.	.
.	.	16c'/	.	24a-/LL	.	.	.
.	.	.	.	24g/	.	.	.
.	.	16G'/JJ	.	.	.	.	.
.	.	.	.	24f#/JJ	.	.	.
4r	.	16c'/LL	.	[4g/	.	.	.
.	.	16G'/	.	.	.	.	.
.	.	16c'/	.	.	.	&(8ee-\&)	.
.	.	16G'/JJ	.	.	.	.	.
=80	=80	=80	=80	=80	=80	=80	=80
4GG/	.	16Bn/LL	.	24g/LL]	.	4.ff\	.
.	.	.	.	24f#/	.	.	.
.	.	16G/	.	.	.	.	.
.	.	.	.	24g/JJ	.	.	.
.	.	16B/	.	24a-/LL	.	.	.
.	.	.	.	24g/	.	.	.
.	.	16G/JJ	.	.	.	.	.
.	.	.	.	24f#/JJ	.	.	.
4r	.	16B/LL	.	[4g/	.	.	.
.	.	16G/	.	.	.	.	.
.	.	16B/	.	.	.	&(8dd\&)	.
.	.	16G/JJ	.	.	.	.	.
=81	=81	=81	=81	=81	=81	=81	=81
4CC/	.	16c/LL	.	24g/LL]	.	4.ee-\	.
.	.	.	.	24f#/	.	.	.
.	.	16G/	.	.	.	.	.
.	.	.	.	24g/JJ	.	.	.
.	.	16c/	.	24a-/LL	.	.	.
.	.	.	.	24g/	.	.	.
.	.	16G/JJ	.	.	.	.	.
.	.	.	.	24f#/JJ	.	.	.
4r	.	16c/LL	.	[4g/	.	.	.
.	.	16G/	.	.	.	.	.
.	.	16E-/	.	.	.	&(8cc\&)	.
.	.	16G/JJ	.	.	.	.	.
=82	=82	=82	=82	=82	=82	=82	=82
4GG/	.	16F/LL	.	8g/L]	.	8.dd\L	.
.	.	16G/	.	.	.	.	.
.	.	16D/	.	8g'/	.	.	.
.	.	16G/JJ	.	.	.	&(16bn\Jk&)	.
4GG/	.	16F/LL	.	8g'/	.	8.b/L	.
.	.	16G/	.	.	.	.	.
.	.	16D/	.	8g'/J	.	.	.
.	.	16G/JJ	.	.	.	32a/LL	.
.	.	.	.	.	.	&(32b/JJJ&)	.
=83	=83	=83	=83	=83	=83	=83	=83
16CC'/LL	.	4.c\	.	4.cc\	.	24gg\LL	.
.	.	.	.	.	.	24ff#\	.
16GG'/	.	.	.	.	.	.	.
.	.	.	.	.	.	24gg\JJ	.
16C/	.	.	.	.	.	24aa\LL	.
.	.	.	.	.	.	&(24gg\&)	.
16GG'/JJ	.	.	.	.	.	.	.
.	.	.	.	.	.	24ff#\JJ	.
16C'/LL	.	.	.	.	.	[4gg\	.
16GG'/	.	.	.	.	.	.	.
16C'/	.	&(8e\&)	.	8ee\	.	.	.
16GG'/JJ	.	.	.	.	.	.	.
=84	=84	=84	=84	=84	=84	=84	=84
16BBn/LL	.	4.f\	.	4.ff\	.	24gg\LL]	.
.	.	.	.	.	.	24ff#\	.
16GG/	.	.	.	.	.	.	.
.	.	.	.	.	.	24gg\JJ	.
16BB/	.	.	.	.	.	24aa\LL	.
.	.	.	.	.	.	24gg\	.
16GG/JJ	.	.	.	.	.	.	.
.	.	.	.	.	.	&(24ff#\JJ&)	.
16BB/LL	.	.	.	.	.	[4gg\	.
16GG/	.	.	.	.	.	.	.
16BB/	.	&(8d\&)	.	8dd\	.	.	.
16GG/JJ	.	.	.	.	.	.	.
=85	=85	=85	=85	=85	=85	=85	=85
16C/LL	.	4.e\	.	4.ee\	.	24gg\LL]	.
.	.	.	.	.	.	24ff#\	.
16GG/	.	.	.	.	.	.	.
.	.	.	.	.	.	24gg\JJ	.
16C/	.	.	.	.	.	24aa\LL	.
.	.	.	.	.	.	24gg\	.
16GG/JJ	.	.	.	.	.	.	.
.	.	.	.	.	.	&(24ff#\JJ&)	.
16C/LL	.	.	.	.	.	8gg'\L	.
16GG/	.	.	.	.	.	.	.
16EE/	.	&(8c\&)	.	8cc\	.	8gg'\J	.
16GG/JJ	.	.	.	.	.	.	.
=86	=86	=86	=86	=86	=86	=86	=86
16FF/LL	.	8.d\L	.	8.dd\L	.	8gg'\L	.
16GG/	.	.	.	.	.	.	.
16CC/	.	.	.	.	.	8gg'\	.
16GG/JJ	.	&(16Bn\Jk&)	.	16bn\Jk	.	.	.
16FF/LL	.	8.B/L	.	8.b/L	.	8gg'\	.
16GG/	.	.	.	.	.	.	.
16DD/	.	.	.	.	.	8gg'\J	.
16GG/JJ	.	32A/LL	.	32a/LL	.	.	.
.	.	&(32B/JJJ&)	.	32b/JJJ	.	.	.
=87	=87	=87	=87	=87	=87	=87	=87
(4.CC/	.	4.C/ 4.c/	.	24cc\LL	.	8cc\	.
.	.	.	.	24bn\	.	.	.
.	.	.	.	24cc\JJ	.	.	.
.	.	.	.	24dd\LL	.	8r	.
.	.	.	.	24cc\	.	.	.
.	.	.	.	24b\JJ	.	.	.
.	.	.	.	[4cc\	.	8r	.
8AA/)	.	8C/ 8c/	.	.	.	24ff\LL	.
.	.	.	.	.	.	24gg\	.
.	.	.	.	.	.	&(24ff\JJ&)	.
=88	=88	=88	=88	=88	=88	=88	=88
(4.BB-/	.	4.C/ 4.c/	.	24cc\LL]	.	8ee\	.
.	.	.	.	24bn\	.	.	.
.	.	.	.	24cc\JJ	.	.	.
.	.	.	.	24dd\LL	.	8r	.
.	.	.	.	24cc\	.	.	.
.	.	.	.	24b\JJ	.	.	.
.	.	.	.	[4cc\	.	8r	.
8GG/)	.	8C/ 8c/	.	.	.	24ee\LL	.
.	.	.	.	.	.	24dd\	.
.	.	.	.	.	.	24ee\JJ	.
=89	=89	=89	=89	=89	=89	=89	=89
(4.AA/	.	4.C/ 4.c/	.	24cc\LL]	.	8ff\	.
.	.	.	.	24a\	.	.	.
.	.	.	.	24b-\JJ	.	.	.
.	.	.	.	24cc\LL	.	8r	.
.	.	.	.	24dd\	.	.	.
.	.	.	.	24ee\JJ	.	.	.
.	.	.	.	24ff\LL	.	8r	.
.	.	.	.	24ee\	.	.	.
.	.	.	.	24dd\JJ	.	.	.
8FF/)	.	8C/ 8c/	.	24cc\LL	.	24aa\LL	.
.	.	.	.	24b-\	.	24gg\	.
.	.	.	.	24a\JJ	.	24aa\JJ	.
=90	=90	=90	=90	=90	=90	=90	=90
(4.GG/	f	4.D/ 4.c/	f	24b-\LL	f	4.bb-\	f
.	.	.	.	24cc\	.	.	.
.	.	.	.	24dd\JJ	.	.	.
.	.	.	.	24cc\LL	.	.	.
.	.	.	.	24b-\	.	.	.
.	.	.	.	24a\JJ	.	.	.
.	.	.	.	24g/LL	.	.	.
.	.	.	.	24f/	.	.	.
.	.	.	.	24e/JJ	.	.	.
8CC/)	.	&(8C/&) 8G/	.	24d/LL	.	8ee\	.
.	.	.	.	24c/	.	.	.
.	.	.	.	24B-/JJ	.	.	.
=91	=91	=91	=91	=91	=91	=91	=91
8FF'/	p	8C/	p	8A/	p	24ff\LL	p
.	.	.	.	.	.	24ee\	.
.	.	.	.	.	.	24ff\JJ	.
8r	.	8r	.	8r	.	24gg\LL	.
.	.	.	.	.	.	24ff\	.
.	.	.	.	.	.	24ee\JJ	.
4r	.	4r	.	4r	.	24dd\LL	.
.	.	.	.	.	.	24cc\	.
.	.	.	.	.	.	24b-\JJ	.
.	.	.	.	.	.	24a/LL	.
.	.	.	.	.	.	24g/	.
.	.	.	.	.	.	24f/JJ	.
=92	=92	=92	=92	=92	=92	=92	=92
8GG'/L	.	8C'/L	.	8B-'/L	.	8e'/L	.
8GG'/	.	8C'/	.	8B-'/	.	8e'/	.
8EE'/J	.	8C'/J	.	8B-'/J	.	8g'/J	.
8r	.	8r	.	8r	.	8r	.
=93	=93	=93	=93	=93	=93	=93	=93
2r	.	2r	.	2r	.	24gg\LL	.
.	.	.	.	.	.	24ff#\	.
.	.	.	.	.	.	24gg\JJ	.
.	.	.	.	.	.	24aa\LL	.
.	.	.	.	.	.	24gg\	.
.	.	.	.	.	.	24ffn\JJ	.
.	.	.	.	.	.	24ee\LL	.
.	.	.	.	.	.	24dd\	.
.	.	.	.	.	.	24cc\JJ	.
.	.	.	.	.	.	24b-/LL	.
.	.	.	.	.	.	24a/	.
.	.	.	.	.	.	24g/JJ	.
=94	=94	=94	=94	=94	=94	=94	=94
8AA'/L	.	8C'/L	.	8c'/L	.	8f'/L	.
8AA'/	.	8C'/	.	8c'/	.	8f'/	.
8FF'/J	.	8C'/J	.	8A'/J	.	8a'/J	.
8r	.	8r	.	8r	.	8r	.
=95	=95	=95	=95	=95	=95	=95	=95
8r	.	8r	.	8r	.	24cc\LL	.
.	.	.	.	.	.	24bn\	.
.	.	.	.	.	.	24cc\JJ	.
(8E/L	.	4c\	.	8g/L	.	24dd\LL	.
.	.	.	.	.	.	24cc\	.
.	.	.	.	.	.	24b-\JJ	.
8F/)	.	.	.	8c/	.	8a\L	.
8FF'/J	.	8c\	.	8a/J	.	16ff\Jk	.
.	.	.	.	.	.	16r	.
=96	=96	=96	=96	=96	=96	=96	=96
8r	.	8r	.	8r	.	24cc\LL	.
.	.	.	.	.	.	24bn\	.
.	.	.	.	.	.	24cc\JJ	.
(8E/L	.	4c\	.	8g/L	.	24dd\LL	.
.	.	.	.	.	.	24cc\	.
.	.	.	.	.	.	24b-\JJ	.
8F/)	.	.	.	8c/	.	8a\L	.
8FF'/J	.	8c\	.	8a/J	.	16aa\Jk	.
.	.	.	.	.	.	16r	.
=97	=97	=97	=97	=97	=97	=97	=97
8r	.	8r	.	8r	.	24cc\LL	.
.	.	.	.	.	.	24bn\	.
.	.	.	.	.	.	24cc\JJ	.
(8E\L	.	4c\	.	8g/L	.	24dd\LL	.
.	.	.	.	.	.	24cc\	.
.	.	.	.	.	.	24b-\JJ	.
8F\	.	.	.	8c/	.	8a\L	.
8F#\J)	.	&(8d\&)	.	8a/J	.	16ccc\Jk	.
.	.	.	.	.	.	16r	.
=98	=98	=98	=98	=98	=98	=98	=98
8G'/L	.	8e\L	.	8g/L	.	8cc\L	.
8GG'/	.	8f\	.	8bn/	.	16ee\L	.
.	.	.	.	.	.	16dd\J	.
8C'/J	.	8e\J	.	8g/J	.	8cc\J	.
8r	.	8r	.	8r	.	8r	.
=99	=99	=99	=99	=99	=99	=99	=99
2r	.	24f\LL	p	2r	.	2r	.
.	.	24e\	.	.	.	.	.
.	.	24f\JJ	.	.	.	.	.
.	.	24g\LL	.	.	.	.	.
.	.	24f\	.	.	.	.	.
.	.	24e\JJ	.	.	.	.	.
.	.	24d\LL	.	.	.	.	.
.	.	24c\	.	.	.	.	.
.	.	24B-\JJ	.	.	.	.	.
.	.	24A/LL	.	.	.	.	.
.	.	24G/	.	.	.	.	.
.	.	24F/JJ	.	.	.	.	.
=100	=100	=100	=100	=100	=100	=100	=100
4r	.	8E'/L	.	4r	.	4r	.
.	.	8E'/	.	.	.	.	.
8C'/L	p	8G'/J	p	8b-'\L	p	8bb-'\L	p
8C'/J	.	8r	.	8b-'\J	.	8bb-'\J	.
=101	=101	=101	=101	=101	=101	=101	=101
(24B-\LL	.	2r	.	8e'/	.	8ee'\	.
24A\	.	.	.	.	.	.	.
24B-\JJ	.	.	.	.	.	.	.
24c\LL	.	.	.	8r	.	8r	.
24B-\	.	.	.	.	.	.	.
24A\JJ	.	.	.	.	.	.	.
24G\LL	.	.	.	4r	.	4r	.
24F\	.	.	.	.	.	.	.
24E\JJ	.	.	.	.	.	.	.
24D/LL	.	.	.	.	.	.	.
24C/	.	.	.	.	.	.	.
24BB-/JJ)	.	.	.	.	.	.	.
=102	=102	=102	=102	=102	=102	=102	=102
8AA'/L	.	8A'/L	.	4r	.	4r	.
8AA'/	.	8A/	.	.	.	.	.
8C'/J	.	8c'/J	.	8ee-'\L	.	8eee-'\L	.
8r	.	8r	.	8ee-'\J	.	8eee-'\J	.
=103	=103	=103	=103	=103	=103	=103	=103
8AA/L	.	8A/L	.	8f#/	.	8ff#'\	.
8AA/	.	8A/	.	8r	.	8r	.
8C/J	.	8c/J	.	8ee-\L	.	8eee-'\L	.
8r	.	8r	.	8ee-\J	.	8eee-'\J	.
=104	=104	=104	=104	=104	=104	=104	=104
8FF#/L	.	8F#/L	.	8dd\	.	8ddd\	.
8FF#/	.	8F#/	.	8r	.	8r	.
8D/J	.	8d/J	.	8cc\L	.	8ccc\L	.
8r	.	8r	.	8cc\J	.	8ccc\J	.
=105	=105	=105	=105	=105	=105	=105	=105
8GG/L	.	8G\L	.	8b-\	.	8bb-\	.
8GG/	.	8G\	.	8r	.	8r	.
8G/J	.	8g\J	.	8b-\L	.	8bb-\L	.
8r	.	8r	.	8b-\J	.	8bb-\J	.
=106	=106	=106	=106	=106	=106	=106	=106
8C#\L	.	8c#\L	.	8a'/	.	8aa\	.
8C#\	.	8c#\	.	8r	.	8r	.
8E\J	.	8e\J	.	8g/L	.	8gg\L	.
8r	.	8r	.	8g/J	.	8gg\J	.
=107	=107	=107	=107	=107	=107	=107	=107
8D\L	f	8d\L	f	8f/	f	8ff\	f
8D\	.	8d\	.	8r	.	8r	.
8F\J	.	8f\J	.	8d/L	.	8dd\L	.
8r	.	8r	.	8d/J	.	8dd\J	.
=108	=108	=108	=108	=108	=108	=108	=108
8BB-/L	.	8B-\L	.	8f/	.	8ff\	.
8BB-/	.	8B-\	.	8r	.	8r	.
8D/J	.	8d\J	.	8G#/L	.	8g#/L	.
8r	.	8r	.	8G#/J	.	8g#/J	.
=109	=109	=109	=109	=109	=109	=109	=109
8AA/	.	8c#\	.	8A/	.	8a/	.
[4.A\	.	8r	.	8r	.	8r	.
.	.	4r	.	4r	.	24bb-\LL	.
.	.	.	.	.	.	24aa\	.
.	.	.	.	.	.	24bb-\JJ	.
.	.	.	.	.	.	24ccc\LL	.
.	.	.	.	.	.	24bb-\	.
.	.	.	.	.	.	24aa\JJ	.
=110	=110	=110	=110	=110	=110	=110	=110
8A\L]	.	4r	.	24b-/LL	.	24gg\LL	.
.	.	.	.	24a/	.	24ff#\	.
.	.	.	.	24b-/JJ	.	24gg\JJ	.
8A'\	.	.	.	24cc/LL	.	24aa\LL	.
.	.	.	.	24b-/	.	24gg\	.
.	.	.	.	24a/JJ	.	24ffn\JJ	.
8A'\	.	24b-\LL	.	24g/LL	.	8ee'\L	.
.	.	24a\	.	24f#/	.	.	.
.	.	24b-\JJ	.	24g/JJ	.	.	.
8A'\J	.	24cc\LL	.	24a/LL	.	8dd'\J	.
.	.	24b-\	.	24g/	.	.	.
.	.	24a\JJ	.	24fn/JJ	.	.	.
=111	=111	=111	=111	=111	=111	=111	=111
8AA'/	.	8g'\L	.	8e'/L	.	8cc#\	.
[4.A\	.	8f'\	.	8d'/	.	8r	.
.	.	8e'\J	.	8c#'/J	.	24bb-\LL	.
.	.	.	.	.	.	24aa\	.
.	.	.	.	.	.	24bb-\JJ	.
.	.	8r	.	8r	.	24ccc\LL	.
.	.	.	.	.	.	24bb-\	.
.	.	.	.	.	.	24aa\JJ	.
=112	=112	=112	=112	=112	=112	=112	=112
8A\L]	.	4r	.	24b-/LL	.	24gg\LL	.
.	.	.	.	24a/	.	24ff#\	.
.	.	.	.	24b-/JJ	.	24gg\JJ	.
8A'\	.	.	.	24cc/LL	.	24aa\LL	.
.	.	.	.	24b-/	.	24gg\	.
.	.	.	.	24a/JJ	.	24ffn\JJ	.
8A'\	.	24b-\LL	.	24g/LL	.	8ee'\L	.
.	.	24a\	.	24f#/	.	.	.
.	.	24b-\JJ	.	24g/JJ	.	.	.
8A'\J	.	24cc\LL	.	24a/LL	.	8dd'\J	.
.	.	24b-\	.	24g/	.	.	.
.	.	24a\JJ	.	24fn/JJ	.	.	.
=113	=113	=113	=113	=113	=113	=113	=113
8AA'/	.	8g'\L	.	8e'/L	.	8cc#\	.
[4.A\	.	8f'\	.	8d'/	.	8r	.
.	.	8e'\J	.	8c#'/J	.	24bb-\LL	.
.	.	.	.	.	.	24aa\	.
.	.	.	.	.	.	24bb-\JJ	.
.	.	8r	.	8r	.	24ccc\LL	.
.	.	.	.	.	.	24bb-\	.
.	.	.	.	.	.	24aa\JJ	.
=114	=114	=114	=114	=114	=114	=114	=114
2A\_	.	4r	.	24b-/LL	.	24gg\LL	.
.	.	.	.	24a/	.	24ff#\	.
.	.	.	.	24b-/JJ	.	24gg\JJ	.
.	.	.	.	24cc\LL	.	24aa\LL	.
.	.	.	.	24b-\	.	24gg\	.
.	.	.	.	24a\JJ	.	24ffn\JJ	.
.	.	24b-\LL	.	24g/LL	.	24ee\LL	.
.	.	24a\	.	24f#/	.	24dd#\	.
.	.	24b-\JJ	.	24g/JJ	.	24ee\JJ	.
.	.	24cc\LL	.	24a/LL	.	24ff\LL	.
.	.	24b-\	.	24g/	.	24ee\	.
.	.	24a\JJ	.	24fn/JJ	.	24ddn\JJ	.
=115	=115	=115	=115	=115	=115	=115	=115
4.A\]	.	24g\LL	.	24e/LL	.	24cc#\LL	.
.	.	24f#\	.	24d#/	.	24b#\	.
.	.	24g\JJ	.	24e/JJ	.	24cc#\JJ	.
.	.	24a\LL	.	24f/LL	.	24dd\LL	.
.	.	24g\	.	24e/	.	24cc#\	.
.	.	24fn\JJ	.	24dn/JJ	.	24b#\JJ	.
.	.	8e'/L	.	8c#'/L	.	8a'/L	.
8BB-'/	.	8D'/J	.	8d'/J	.	8a'/J	.
=116	=116	=116	=116	=116	=116	=116	=116
8AA'/L	f	8E'/L	f	8c#'/L	f	8a'/L	f
8GG'/	.	8e'/	.	8c#'/	.	8a'/J	.
8FF'/	.	8f'/	.	8d'/	.	8a'\L	.
8EE'/J	.	8g'/J	.	8e'/J	.	16bn\L	.
.	.	.	.	.	.	16cc#\JJ	.
=117	=117	=117	=117	=117	=117	=117	=117
8DD'/	.	24a\LL	.	8f/	.	[2dd\	.
.	.	24g#\	.	.	.	.	.
.	.	24a\JJ	.	.	.	.	.
8r	.	24b-\LL	.	8r	.	.	.
.	.	24a\	.	.	.	.	.
.	.	24gn\JJ	.	.	.	.	.
4r	.	24f\LL	.	4r	.	.	.
.	.	24e\	.	.	.	.	.
.	.	24f\JJ	.	.	.	.	.
.	.	24g\LL	.	.	.	.	.
.	.	24f\	.	.	.	.	.
.	.	24e\JJ	.	.	.	.	.
=118	=118	=118	=118	=118	=118	=118	=118
2r	.	8d'\L	.	2r	.	8dd\L]	.
.	.	8d'\	.	.	.	32ee\LL	.
.	.	.	.	.	.	32ff\	.
.	.	.	.	.	.	32gg\	.
.	.	.	.	.	.	32aa\JJJ	.
.	.	8d'\	.	.	.	8bb-'\L	.
.	.	8d'\J	.	.	.	8bb-'\J	.
=119	=119	=119	=119	=119	=119	=119	=119
2r	.	8c#'/L	.	2r	.	4bb-\	f
.	.	8A'/	p	.	.	.	.
.	.	8Bn'/	.	.	.	8aa\L	p
.	.	8c#'/J	.	.	.	8gg'\J	.
=120	=120	=120	=120	=120	=120	=120	=120
2r	.	8d'\L	.	2r	.	8ff'\L	.
.	.	8e'\	.	.	.	8ee'\	.
.	.	8f'\	.	.	.	8dd'\	.
.	.	8f#'\J	.	.	.	8cc'\J	.
=121	=121	=121	=121	=121	=121	=121	=121
[2G\	.	8g\	.	24dd\LL	.	8b-\	.
.	.	.	.	24cc#\	.	.	.
.	.	.	.	24dd\JJ	.	.	.
.	.	8r	.	24ee-\LL	.	8r	.
.	.	.	.	24dd\	.	.	.
.	.	.	.	24ccn\JJ	.	.	.
.	.	4r	.	24b-/LL	.	4r	.
.	.	.	.	24a/	.	.	.
.	.	.	.	24b-/JJ	.	.	.
.	.	.	.	24cc\LL	.	.	.
.	.	.	.	24b-\	.	.	.
.	.	.	.	24a\JJ	.	.	.
=122	=122	=122	=122	=122	=122	=122	=122
(8G\L]	.	2r	.	8g'/L	.	2r	.
32A\LL	.	.	.	8g'/	.	.	.
32B-\	.	.	.	.	.	.	.
32c\	.	.	.	.	.	.	.
32d\JJJ	.	.	.	.	.	.	.
8e-'\L)	.	.	.	8g'/	.	.	.
8e-\J	.	.	.	8g'/J	.	.	.
=123	=123	=123	=123	=123	=123	=123	=123
(4e-\	.	2r	.	8f#/L	.	2r	.
.	.	.	.	8d'/J	p	.	.
8d\L)	.	.	.	8e'/L	.	.	.
8c\J	p	.	.	8f#'/J	.	.	.
=124	=124	=124	=124	=124	=124	=124	=124
8B-'\L	.	2r	.	8g'/L	.	[2gg\	.
8A'\	.	.	.	8a'/	.	.	.
8G'\	.	.	.	8b-'/	.	.	.
8F'\J	.	.	.	8bn'/J	.	.	.
=125	=125	=125	=125	=125	=125	=125	=125
8E-'/L	.	[2c\	.	8cc\	.	24gg\LL]	.
.	.	.	.	.	.	24ff#\	.
.	.	.	.	.	.	24gg\JJ	.
8D'/	.	.	.	8r	.	24aa-\LL	.
.	.	.	.	.	.	24gg\	.
.	.	.	.	.	.	24ffn\JJ	.
8C'/	.	.	.	4r	.	24ee\LL	.
.	.	.	.	.	.	24dd\	.
.	.	.	.	.	.	24ee\JJ	.
8BB-'/J	.	.	.	.	.	24ff\LL	.
.	.	.	.	.	.	24ee\	.
.	.	.	.	.	.	24dd\JJ	.
=126	=126	=126	=126	=126	=126	=126	=126
8AA-'/L	.	8c\L]	.	2r	.	8cc'\L	.
8GG'/	.	32d\LL	.	.	.	8cc'\	.
.	.	32e-\	.	.	.	.	.
.	.	32f\	.	.	.	.	.
.	.	32g\JJJ	.	.	.	.	.
8FF'/	.	8a-'\L	.	.	.	8cc'\	.
8F'/J	.	8a-'\J	.	.	.	8cc'\J	.
=127	=127	=127	=127	=127	=127	=127	=127
8GG/L	.	4a-\	.	2r	.	8bn'/L	.
8G/J	.	.	.	.	.	8g'/	p
8r	.	8g\L	p	.	.	8an'/	.
8G\	.	8f'\J	.	.	.	8b'/J	.
=128	=128	=128	=128	=128	=128	=128	=128
8C\L	.	8e-'\L	.	2r	.	8cc'\L	.
8c\J	.	8d'\	.	.	.	8dd'\	.
8r	.	8c'\	.	.	.	8ee-'\	.
8C/	.	8B-'\J	.	.	.	8een'\J	.
=129	=129	=129	=129	=129	=129	=129	=129
(24C/LL	.	8A-/	.	4r	.	[2ff\	.
24BBn/	.	.	.	.	.	.	.
24C/JJ	.	.	.	.	.	.	.
24D-/LL	.	8r	.	.	.	.	.
24C/	.	.	.	.	.	.	.
24BB-/JJ	.	.	.	.	.	.	.
24AA-/LL	.	24c/LL	.	[4f/	.	.	.
24GG/	.	24Bn/	.	.	.	.	.
24AA-/JJ	.	24c/JJ	.	.	.	.	.
24BB-/LL	.	24d\LL	.	.	.	.	.
24AA-/	.	24c\	.	.	.	.	.
24GG/JJ)	.	24B-\JJ	.	.	.	.	.
=130	=130	=130	=130	=130	=130	=130	=130
(8FF'/L	.	2A-/	.	4.f/]	.	8ff\L]	.
8FF'/J	.	.	.	.	.	32gg\LL	.
.	.	.	.	.	.	32aa-\	.
.	.	.	.	.	.	32bb-\	.
.	.	.	.	.	.	32ccc\JJJ	.
8FF'/L)	.	.	.	.	.	8ddd-\L	.
[8FF'/J	.	.	.	48a-\LLL	.	8ddd-'\J	.
.	.	.	.	48b-\	.	.	.
.	.	.	.	48cc\	.	.	.
.	.	.	.	48dd-\	.	.	.
.	.	.	.	48ee-\	.	.	.
.	.	.	.	48ff\JJJ	.	.	.
=131	=131	=131	=131	=131	=131	=131	=131
8EE-/	.	8A-/	.	4.gg-\	.	4ddd-\	.
(4E-\	.	4A-/	.	.	.	.	.
.	.	.	.	.	.	8ccc\L	.
8D-'\)	.	8A-/	.	8ff\	.	8ddd-'\J	.
=132	=132	=132	=132	=132	=132	=132	=132
8C'/L	.	8A-'/L	.	8ee-'\L	.	8eee-'\L	.
8BB-'/	.	8A-'/	.	8dd-'\	.	8fff'\	.
8AA-'/	.	8A-'/	.	8cc'\	.	8ggg-'\	.
8GG-'/J	.	8A-'/J	.	8cc'\J	.	8eee-'\J	.
=133	=133	=133	=133	=133	=133	=133	=133
8FF/	ff	8A-/	ff	8dd-\	ff	8aaa-'\	ff
8d-'\L	pp	8f\L	pp	8a-/L	pp	8r	.
8d-'\	.	8f\	.	8a-/	.	4r	.
8d-'\J	.	8f\J	.	8a-/J	.	.	.
=134	=134	=134	=134	=134	=134	=134	=134
8d-'\L	.	8f\L	.	8a-/L	.	2r	.
8d-'\J	.	8f\	.	8a-/	.	.	.
8d-'\L	.	8f\	.	8a-/	.	.	.
8d-'\J	.	8f\J	.	8a-/J	.	.	.
=135	=135	=135	=135	=135	=135	=135	=135
8d-\L	.	8f\L	.	8a-/L	.	2r	.
8d-\	.	8f\	.	8a-/	.	.	.
8d-\	.	8f\	.	8a-/	.	.	.
8d-\J	.	8f\J	.	8a-/J	.	.	.
=136	=136	=136	=136	=136	=136	=136	=136
8d-\L	.	8f\L	.	8a-/L	.	4r	.
8d-\	.	8f\	.	8a-/	.	.	.
8d-\	.	8f'\	.	8a-/	.	8r	.
8d-\J	.	8f'\J	.	8a-/J	.	8ff\	pp
=137	=137	=137	=137	=137	=137	=137	=137
8c\	.	4.e-\	.	8a-/L	.	4.gg-\	.
8r	.	.	.	8g/J	.	.	.
4r	.	.	.	[4a-/	.	.	.
.	.	8c\	.	.	.	8ee-\	.
=138	=138	=138	=138	=138	=138	=138	=138
2r	.	4.A-/	.	8a-/L]	.	4.cc\	.
.	.	.	.	8g/J	.	.	.
.	.	.	.	[4a-/	.	.	.
.	.	8g-\	.	.	.	8ee-\	.
=139	=139	=139	=139	=139	=139	=139	=139
2r	.	4.f\	.	8a-/L]	.	4.dd-\	.
.	.	.	.	8g/J	.	.	.
.	.	.	.	[4a-/	.	.	.
.	.	8a-\	.	.	.	8ff\	.
=140	=140	=140	=140	=140	=140	=140	=140
2r	.	4.f\	.	8a-/L]	.	4.aa-\	.
.	.	.	.	8g/J	.	.	.
.	.	.	.	[4a-/	.	.	.
.	.	8d-\	.	.	.	8ff\	.
=141	=141	=141	=141	=141	=141	=141	=141
2r	.	4.e-\	.	8a-/L]	.	4.gg-\	.
.	.	.	.	8g/J	.	.	.
.	.	.	.	[4a-/	.	.	.
.	.	8c\	.	.	.	8ee-\	.
=142	=142	=142	=142	=142	=142	=142	=142
2r	.	4.A-/	.	8a-/L]	.	4.cc\	.
.	.	.	.	8g/J	.	.	.
.	.	.	.	[4a-/	.	.	.
.	.	8g-\	.	.	.	8ee-\	.
=143	=143	=143	=143	=143	=143	=143	=143
8r	.	8f\	.	8a-/]	.	8dd-\	.
8D-\L	.	8A-/L	.	8f/L	.	8dd-\L	.
8D-\	.	8A-/	.	8f/	.	8dd-\	.
8D-\J	.	8A-/J	.	8f/J	.	8dd-\J	.
=144	=144	=144	=144	=144	=144	=144	=144
8D-\	.	8A-/	.	8f/	.	8dd-\	.
8BB-/L	.	8B-/L	.	8f/L	.	8dd-\L	.
8BB-/	.	8B-/	.	8f/	.	8dd-\	.
8BB-/J	.	8B-/J	.	8f/J	.	8dd-\J	.
=145	=145	=145	=145	=145	=145	=145	=145
8BB-/	.	8B-/	.	8f/	.	8dd-\	.
8G-\L	.	8B-/L	.	8f#/L	.	8dd-\L	.
8G-\	.	8B-/	.	8f#/	.	8dd-\	.
8G-\J	.	8B-/J	.	8f#/J	.	8dd-\J	.
=146	=146	=146	=146	=146	=146	=146	=146
8G-\	.	8B-/	.	8f#/	.	8dd-\	.
8E-\L	.	8B-/L	.	8f#/L	.	8ee-\L	.
8E-\	.	8B-/	.	8f#/	.	8ee-\	.
8E-\J	.	8B-/J	.	8f#/J	.	8ee-\J	.
=147	=147	=147	=147	=147	=147	=147	=147
8E-\	.	8B-/	.	8f#/	.	8ee-\	.
8r	.	8Bn/L	.	8f#/L	.	8ee-\L	.
4r	.	8B/	.	8f#/	.	8ee-\	.
.	.	8B/J	.	8f#/J	.	8ee-\J	.
=148	=148	=148	=148	=148	=148	=148	=148
2r	.	8Bn/	.	8f#/	.	8ee-\	.
.	.	8B/L	.	8g/L	.	8een\L	.
.	.	8B/	.	8g/	.	8ee\	.
.	.	8B/J	.	8g/J	.	8ee\J	.
=149	=149	=149	=149	=149	=149	=149	=149
8r	.	8Bn/	.	8g/	.	8ee\	.
8GG/L	.	8B\L 8d\	.	8g/L	.	8ff\L	.
8GG/	.	8B\ 8d\	.	8g/	.	8ff\	.
8GG/J	.	8B\J 8d\	.	8g/J	.	8ff\J	.
=150	=150	=150	=150	=150	=150	=150	=150
8GG/	.	8Bn\ 8d\	.	8g/	.	8ff\	.
8r	.	8G/L	p	8r	.	8r	.
4r	.	8G/	.	4r	.	4r	.
.	.	8G/J	.	.	.	.	.
=151	=151	=151	=151	=151	=151	=151	=151
2r	.	8G/L	.	2r	.	2r	.
.	.	8G/	.	.	.	.	.
.	.	8G/	.	.	.	.	.
.	.	8G/J	.	.	.	.	.
=152	=152	=152	=152	=152	=152	=152	=152
4r	.	8G/L	.	4r	.	4r	.
.	.	8G/	.	.	.	.	.
8r	.	8G/	.	8r	.	8r	.
8C/	p	8G/J	p	8e/	p	8ee\	p
=153	=153	=153	=153	=153	=153	=153	=153
(4.D\	.	8G/L	.	4.f/	.	4.ff\	.
.	.	8F#/J	.	.	.	.	.
.	.	[4G/	.	.	.	.	.
8BBn/	.	.	.	8d/	.	8dd\	.
=154	=154	=154	=154	=154	=154	=154	=154
4.GG/	.	8G/L]	.	4.Bn/	.	4.bn\	.
.	.	8F#/J	.	.	.	.	.
.	.	[4G/	.	.	.	.	.
8F\	.	.	.	8d/	.	8dd\	.
=155	=155	=155	=155	=155	=155	=155	=155
4.E\	.	8G/L]	.	4.c/	.	4.cc\	.
.	.	8F#/J	.	.	.	.	.
.	.	[4G/	.	.	.	.	.
8G\	.	.	.	8e/	.	8ee\	.
=156	=156	=156	=156	=156	=156	=156	=156
4.E\	.	8G/L]	.	4.g/	.	4.gg\	.
.	.	8F#/	.	.	.	.	.
.	.	8G/	.	.	.	.	.
8C/	.	8e/J	.	[8g/	.	[8gg\	.
=157	=157	=157	=157	=157	=157	=157	=157
4.D\	.	4.fn\	.	8g/L]	.	8gg\L]	.
.	.	.	.	8f#/J	.	8ff#\J	.
.	.	.	.	[4g/	.	[4gg\	.
8BBn/	.	8d\	.	.	.	.	.
=158	=158	=158	=158	=158	=158	=158	=158
4.GG/	.	4.Bn/	.	8g/L]	.	8gg\L]	.
.	.	.	.	8f#/J	.	8ff#\J	.
.	.	.	.	[4g/	.	[4gg\	.
8F\	.	8d\	.	.	.	.	.
=159	=159	=159	=159	=159	=159	=159	=159
8E-\)	.	[2c\	.	8g/]	.	24gg\LL]	.
.	.	.	.	.	.	24ff#\	.
.	.	.	.	.	.	24gg\JJ	.
8r	.	.	.	8r	.	24aa-\LL	.
.	.	.	.	.	.	24gg\	.
.	.	.	.	.	.	24ffn\JJ	.
4r	.	.	.	4r	.	24ee-\LL	.
.	.	.	.	.	.	24dd\	.
.	.	.	.	.	.	24ee-\JJ	.
.	.	.	.	.	.	24ff\LL	.
.	.	.	.	.	.	24ee-\	.
.	.	.	.	.	.	24dd\JJ	.
=160	=160	=160	=160	=160	=160	=160	=160
2r	.	8c\L]	.	2r	.	8cc'\L	.
.	.	32d\LL	.	.	.	8cc'\	.
.	.	32e-\	.	.	.	.	.
.	.	32f\	.	.	.	.	.
.	.	32g\JJJ	.	.	.	.	.
.	.	8a-'\L	.	.	.	8cc'\	.
.	.	8a-'\J	.	.	.	8cc'\J	.
=161	=161	=161	=161	=161	=161	=161	=161
2r	.	4a-\	.	2r	.	8bn'/L	.
.	.	.	.	.	.	8g'/	.
.	.	8g'\L	p	.	.	8a'/	.
.	.	8f'\J	.	.	.	8b'/J	.
=162	=162	=162	=162	=162	=162	=162	=162
2r	.	8e-'\L	.	2r	.	8cc'\L	.
.	.	8d'\	.	.	.	8dd'\	.
.	.	8c'\	.	.	.	8ee-'\	.
.	.	8B-'\J	.	.	.	8een'\J	.
=163	=163	=163	=163	=163	=163	=163	=163
(24c\LL	.	8A-/	.	[2f/	.	8ff\	.
24Bn\	.	.	.	.	.	.	.
24c\JJ	.	.	.	.	.	.	.
24d-\LL	.	8r	.	.	.	8r	.
24c\	.	.	.	.	.	.	.
24B-\JJ	.	.	.	.	.	.	.
24A-\LL	.	4r	.	.	.	4r	.
24G\	.	.	.	.	.	.	.
24A-\JJ	.	.	.	.	.	.	.
24B-\LL	.	.	.	.	.	.	.
24A-\	.	.	.	.	.	.	.
24G\JJ)	.	.	.	.	.	.	.
=164	=164	=164	=164	=164	=164	=164	=164
(8F'\L	.	2r	.	8f/L]	.	2r	.
8F'\)	.	.	.	32g/LL	.	.	.
.	.	.	.	32a-/	.	.	.
.	.	.	.	32b-/	.	.	.
.	.	.	.	32cc/JJJ	.	.	.
8F'\	.	.	.	8dd-'\L	.	.	.
8F'\J	.	.	.	8dd-'\J	.	.	.
=165	=165	=165	=165	=165	=165	=165	=165
8E'\L	.	2r	.	4dd-\	.	2r	.
8C'\	.	.	.	.	.	.	.
8D'\	.	.	.	8cc\L	p	.	.
8E'\J	.	.	.	8b-'\J	.	.	.
=166	=166	=166	=166	=166	=166	=166	=166
8F'\L	.	2r	.	8a-'/L	.	2ff\	.
8G'\	.	.	.	8g'/	.	.	.
8A-'\	.	.	.	8f'/	.	.	.
8An'\J	.	.	.	8e-'/J	.	.	.
=167	=167	=167	=167	=167	=167	=167	=167
8B-\	.	2r	.	8d-'/L	.	8ff\L	.
8r	.	.	.	8dd-'/	.	32gg\LL	.
.	.	.	.	.	.	32aa\	.
.	.	.	.	.	.	32bb-\	.
.	.	.	.	.	.	32ccc\JJJ	.
4r	.	.	.	8b-'/	.	8ddd-'\L	.
.	.	.	.	8a-'/J	.	8ddd-'\J	.
=168	=168	=168	=168	=168	=168	=168	=168
2r	.	2r	.	8g/L	.	4ddd-\	.
.	.	.	.	8f/	.	.	.
.	.	.	.	8e-/	.	8ccc\L	.
.	.	.	.	8d-/J	.	8ddd-'\J	.
=169	=169	=169	=169	=169	=169	=169	=169
2r	.	2r	.	8c/L	.	8eee\	.
.	.	.	.	8ee-/	.	32aa-\LLL	.
.	.	.	.	.	.	32bb-\	.
.	.	.	.	.	.	32ccc\	.
.	.	.	.	.	.	32ddd-\JJJ	.
.	.	.	.	8cc/	.	8eee\L	.
.	.	.	.	8b-/J	.	8eee'\J	.
=170	=170	=170	=170	=170	=170	=170	=170
4r	.	4r	.	8a-/L	.	4eee-\	.
.	.	.	.	8g-/	.	.	.
8r	.	8r	.	8f/	.	8ddd-\L	.
8AA-/	.	8c\	.	8e-/J	.	8eee-'\J	.
=171	=171	=171	=171	=171	=171	=171	=171
8D-'\L	.	8f'\L	.	8d-/	.	8fff\	.
8d-'\	.	8f'\	.	40a-\LLL	.	8r	.
.	.	.	.	40b-\	.	.	.
.	.	.	.	40cc\	.	.	.
.	.	.	.	40dd-\	.	.	.
.	.	.	.	40ee-\JJJ	.	.	.
8d-'\	.	8f'\	.	8ff'\L	.	4r	.
8c'\J	.	8e-'\J	.	8ff'\J	.	.	.
=172	=172	=172	=172	=172	=172	=172	=172
8B-'\L	.	8d-'/L	.	4ff\	.	8r	.
8A-'\	.	8c'/	.	.	.	40ff\LLL	.
.	.	.	.	.	.	40gg\	.
.	.	.	.	.	.	40aa-\	.
.	.	.	.	.	.	40bb-\	.
.	.	.	.	.	.	40ccc\JJJ	.
8G'\	.	8B-'/	.	8ee'\L	.	8ddd-'\L	.
8F'\J	.	8A-'/J	.	8ff'\J	.	8ddd-'\J	.
=173	=173	=173	=173	=173	=173	=173	=173
8E'\L	.	8G'\L	.	8gg'\	.	8ccc\	.
8e'\	.	8g'\	.	32cc\LLL	.	8r	.
.	.	.	.	32dd\	.	.	.
.	.	.	.	32ee\	.	.	.
.	.	.	.	32ff\JJJ	.	.	.
8e'\	.	8g'\	.	8gg'\L	.	4r	.
8d'\J	.	8f'\J	.	8gg'\J	.	.	.
=174	=174	=174	=174	=174	=174	=174	=174
8c'\L	.	8en'\L	.	4gg\	.	8r	.
8B-'\	.	8d-'\	.	.	.	40ee\LLL	.
.	.	.	.	.	.	40ff\	.
.	.	.	.	.	.	40gg\	.
.	.	.	.	.	.	40aa-\	.
.	.	.	.	.	.	40bb-\JJJ	.
8A-'\	.	8c'\	.	8ff'\L	.	8ccc'\L	.
8G\J	.	8B-'\J	.	8gg'\J	.	24ccc\L	.
.	.	.	.	.	.	24ddd\	.
.	.	.	.	.	.	24eee\JJ	.
=175	=175	=175	=175	=175	=175	=175	=175
8F\L	f	8A-\L	f	8aa-\	f	8fff\	f
8A-'\	.	8a-'\	.	4aa-\	.	4fff\	.
8G'\	.	8g'\	.	.	.	.	.
8F'\J	.	8f'\J	.	[8aa-\	.	[8fff\	.
=176	=176	=176	=176	=176	=176	=176	=176
8E-'/L	.	8e-'\L	.	8aa-\]	.	8fff\]	.
8D-'/	.	8d-'\	.	4aa-\	.	4fff\	.
8C'/	.	8c'\	.	.	.	.	.
8BBn'/J	.	8Bn\J	.	8aa-'\	.	8fff\	.
=177	=177	=177	=177	=177	=177	=177	=177
8C/	.	8c\	.	24gg\LL	.	8eee\	.
.	.	.	.	24ff#\	.	.	.
.	.	.	.	24gg\JJ	.	.	.
8r	.	8r	.	24aa-\LL	.	8r	.
.	.	.	.	24gg\	.	.	.
.	.	.	.	24ffn\JJ	.	.	.
4r	.	[4C/	.	24ee\LL	.	4r	.
.	.	.	.	24dd#\	.	.	.
.	.	.	.	24ee\JJ	.	.	.
.	.	.	.	24ff\LL	.	.	.
.	.	.	.	24ee\	.	.	.
.	.	.	.	24ddn\JJ	.	.	.
=178	=178	=178	=178	=178	=178	=178	=178
2r	.	8C/L]	.	8cc\	.	2r	.
.	.	32D/LL	.	8f'/L 8bn'/	.	.	.
.	.	32E/	.	.	.	.	.
.	.	32F/	.	.	.	.	.
.	.	32G/JJJ	.	.	.	.	.
.	.	8A-/L	.	8f'/ 8b'/	.	.	.
.	.	8A-'/J	.	8f'/J 8b'/	.	.	.
=179	=179	=179	=179	=179	=179	=179	=179
[2CC/	.	8G'/L	.	8e/ 8cc/	.	24gg\LL	.
.	.	.	.	.	.	24ff#\	.
.	.	.	.	.	.	24gg\JJ	.
.	.	8C'/J	.	8r	.	24aa-\LL	.
.	.	.	.	.	.	24gg\	.
.	.	.	.	.	.	24ffn\JJ	.
.	.	[4c\	.	4r	.	24ee\LL	.
.	.	.	.	.	.	24dd#\	.
.	.	.	.	.	.	24ee\JJ	.
.	.	.	.	.	.	24ff\LL	.
.	.	.	.	.	.	24ee\	.
.	.	.	.	.	.	24ddn\JJ	.
=180	=180	=180	=180	=180	=180	=180	=180
8CC/L]	.	8c\]	.	2r	.	8cc\	.
(32DD/LL	.	8c\L 8f\	.	.	.	8bbn'\L	.
32EE/	.	.	.	.	.	.	.
32FF/	.	.	.	.	.	.	.
32GG/JJJ)	.	.	.	.	.	.	.
8AA-'/L	.	8c\ 8f\	.	.	.	8bb'\	.
8AA-'/J	.	8c\J 8f\	.	.	.	8bb'\J	.
=181	=181	=181	=181	=181	=181	=181	=181
8GG'/L	.	8c\ 8e\	.	24gg\LL	.	8ccc\	.
.	.	.	.	24ff#\	.	.	.
.	.	.	.	24gg\JJ	.	.	.
8CC'/J	.	8r	.	24aa-\LL	.	8r	.
.	.	.	.	24gg\	.	.	.
.	.	.	.	24ffn\JJ	.	.	.
4r	.	[4C/	.	24ee\LL	.	4r	.
.	.	.	.	24dd#\	.	.	.
.	.	.	.	24ee\JJ	.	.	.
.	.	.	.	24ff\LL	.	.	.
.	.	.	.	24ee\	.	.	.
.	.	.	.	24ddn\JJ	.	.	.
=182	=182	=182	=182	=182	=182	=182	=182
2r	.	8C/L]	.	8cc/L	.	2r	.
.	.	40C/LL	.	8f'/J 8bn'/	.	.	.
.	.	40D/	.	.	.	.	.
.	.	40E/	.	.	.	.	.
.	.	40F/	.	.	.	.	.
.	.	40G/JJJ	.	.	.	.	.
.	.	8A-/L	.	8f'/L 8b'/	.	.	.
.	.	8A-'/J	.	8f'/J 8b'/	.	.	.
=183	=183	=183	=183	=183	=183	=183	=183
[2CC/	.	8G'/L	.	8e/ 8cc/	.	24gg\LL	.
.	.	.	.	.	.	24ff-\	.
.	.	.	.	.	.	24gg\JJ	.
.	.	8C'/J	.	8r	.	24aa-\LL	.
.	.	.	.	.	.	24gg\	.
.	.	.	.	.	.	24ffn\JJ	.
.	.	[4c\	.	4r	.	24ee\LL	.
.	.	.	.	.	.	24dd#\	.
.	.	.	.	.	.	24ee\JJ	.
.	.	.	.	.	.	24ff\LL	.
.	.	.	.	.	.	24ee\	.
.	.	.	.	.	.	24ddn\JJ	.
=184	=184	=184	=184	=184	=184	=184	=184
(8CC/L]	.	8c\]	.	8r	.	8cc\	.
40CC/LL	.	8c\L 8f\	f	8a-/L	f	8bbn\L	f
40DD/	.	.	.	.	.	.	.
40EE/	.	.	.	.	.	.	.
40FF/	.	.	.	.	.	.	.
40GG-/JJJ	.	.	.	.	.	.	.
8AA-'/L	f	8c\ 8f\	.	8a-/	.	8bb\	.
8FF'/J)	.	8c\J 8f\	.	8a-/J	.	8bb\J	.
=185	=185	=185	=185	=185	=185	=185	=185
8CC/L	.	8c\ 8e\	.	8g/	.	8ccc\	.
8c/J	pp	8e\L	pp	8g/L	.	8r	.
8c\L	.	8e\	.	8g/	pp	4r	.
8c\J	.	8e\J	.	8g/J	.	.	.
=186	=186	=186	=186	=186	=186	=186	=186
8c'\L	.	8e\L	.	8g/L	.	2r	.
8c'\	.	8e\	.	8g/	.	.	.
8c'\	.	8e\	.	8g/	.	.	.
8c'\J	.	8e\J	.	8g/J	.	.	.
=187	=187	=187	=187	=187	=187	=187	=187
8c\L	.	8f\L	.	8a-/L	.	2r	.
8c\	.	8f\	.	8a-/	.	.	.
8c\	.	8f\	.	8a-/	.	.	.
8c\J	.	8f\J	.	8a-/J	.	.	.
=188	=188	=188	=188	=188	=188	=188	=188
8c#\L	.	8f\L	.	8a-/L	.	2r	.
8c#\	.	8f\	.	8a-/	.	.	.
8c#\	.	8f\	.	8a-/	.	.	.
8c#\J	.	8f\J	.	8a-/J	.	.	.
=189	=189	=189	=189	=189	=189	=189	=189
8c#\L	.	8f#\L	.	8a/L	.	2r	.
8c#\	.	8f#\	.	8a/	.	.	.
8c#\	.	8f#\	.	8a/	.	.	.
8c#\J	.	8f#\J	.	8a/J	.	.	.
=190	=190	=190	=190	=190	=190	=190	=190
8c#\L	.	8f#\L	.	8a/L	.	2r	.
8c#\J	.	8f#\	.	8a/	.	.	.
8c#\L	.	8f#\	.	8a/	.	.	.
8c#\J	.	8f#\J	.	8a/J	.	.	.
=191	=191	=191	=191	=191	=191	=191	=191
8d\	.	8f#\	.	8a/	.	4r	.
8r	.	8r	.	8a/L	pp	.	.
4r	.	4r	.	8a/	.	8r	.
.	.	.	.	8a/J	.	8r	.
=192	=192	=192	=192	=192	=192	=192	=192
2r	.	4r	.	8a/L	.	4r	.
.	.	.	.	8a/	.	.	.
.	.	8r	.	8a/	.	8r	.
.	.	8d\	pp	8a/J	.	8ff#\	pp
=193	=193	=193	=193	=193	=193	=193	=193
2r	.	4.e\	.	8a/L	.	4.gg\	.
.	.	.	.	8g#/J	.	.	.
.	.	.	.	[4a/	.	.	.
.	.	8c#\	.	.	.	8ee\	.
=194	=194	=194	=194	=194	=194	=194	=194
2r	.	4.A/	.	8a/L]	.	4.cc#\	.
.	.	.	.	8g#/J	.	.	.
.	.	.	.	[4a/	.	.	.
.	.	8G/	.	.	.	8ee\	.
=195	=195	=195	=195	=195	=195	=195	=195
2r	.	4.F#/	.	8a/L]	.	4.dd\	.
.	.	.	.	8g#/J	.	.	.
.	.	.	.	[4a/	.	.	.
.	.	8d\	.	.	.	8ff#\	.
=196	=196	=196	=196	=196	=196	=196	=196
4r	.	4.f#\	.	8a/L]	.	4.aa\	.
.	.	.	.	8g#/J	.	.	.
8r	.	.	.	[4a/	.	.	.
(8D\	.	8d\	.	.	.	8ff#\	.
=197	=197	=197	=197	=197	=197	=197	=197
4.E\	.	4.c#\	.	8a/L]	.	4.gg\	.
.	.	.	.	8g#/J	.	.	.
.	.	.	.	[4a/	.	.	.
8C#/	.	8e\	.	.	.	8ee\	.
=198	=198	=198	=198	=198	=198	=198	=198
4.AA/	.	4.g\	.	8a/L]	.	4.cc#\	.
.	.	.	.	8g#/J	.	.	.
.	.	.	.	[4a/	.	.	.
8G\	.	8c#\	.	.	.	8ee\	.
=199	=199	=199	=199	=199	=199	=199	=199
8F#\)	.	8d\	.	8a/]	.	8dd\	.
8D\L	.	8A/L	.	8f#/L	.	8dd\L	.
8D\	.	8A/	.	8f#/	.	8dd\	.
8D\J	.	8A/J	.	8f#/J	.	8dd\J	.
=200	=200	=200	=200	=200	=200	=200	=200
8D\	.	8A/	.	8f#/	.	8dd\	.
8D\L	.	8A/L	.	8fn/L	.	8dd\L	.
8D\	.	8A/	.	8f/	.	8dd\	.
8D\J	.	8A/J	.	8f/J	.	8dd\J	.
=201	=201	=201	=201	=201	=201	=201	=201
8D\	.	8A/	.	8f/	.	8dd\	.
8BB-/L	.	8B-/L	.	8f/L	.	8dd\L	.
8BB-/	.	8B-/	.	8f/	.	8dd\	.
8BB-/J	.	8B-/J	.	8f/J	.	8dd\J	.
=202	=202	=202	=202	=202	=202	=202	=202
8BB-/	.	8B-/	.	8f/	.	8dd\	.
8BB-/L	.	8d\L	.	8f/L	.	8aa-\L	.
8BB-/	.	8d\	.	8f/	.	8aa-\	.
8BB-/J	.	8d\J	.	8f/J	.	8aa-\J	.
=203	=203	=203	=203	=203	=203	=203	=203
8BB-/	.	8d\	.	8f/	.	8aa-\	.
8BB-/L	p	8r	.	8r	.	8r	.
8BB-/	.	4r	.	4r	.	4r	.
[8BB-/J	.	.	.	.	.	.	.
=204	=204	=204	=204	=204	=204	=204	=204
8BB-/L]	.	4r	.	4r	.	4r	.
8BB-/	.	.	.	.	.	.	.
8BB-/	.	8r	.	8r	.	8r	.
8BB-/J	.	8E-/	p	8g/	p	8gg\	p
=205	=205	=205	=205	=205	=205	=205	=205
(8BB-/L	.	4.D/	.	4.a-/	.	4.aa-\	.
8AA/J)	.	.	.	.	.	.	.
[4BB-/	.	.	.	.	.	.	.
.	.	8F/	.	8f/	.	8ff\	.
=206	=206	=206	=206	=206	=206	=206	=206
(8BB-/L]	.	4.B-/	.	4.d/	.	4.dd\	.
8AA/J	.	.	.	.	.	.	.
[4BB-/	.	.	.	.	.	.	.
.	.	8A-/	.	8f/	.	8ff\	.
=207	=207	=207	=207	=207	=207	=207	=207
8BB-/L]	.	4.G/	.	4.e-/	.	4.ee-\	.
8AA/J)	.	.	.	.	.	.	.
[4BB-/	.	.	.	.	.	.	.
.	.	8B-/	.	8g/	.	8gg\	.
=208	=208	=208	=208	=208	=208	=208	=208
&((8BB-/L]&)	.	4.G/	.	4.b-\	.	4.bb-\	.
8AA/J)	.	.	.	.	.	.	.
[4BB-/	.	.	.	.	.	.	.
.	.	8E-/	.	8g/	.	8gg\	.
=209	=209	=209	=209	=209	=209	=209	=209
8BB-/L]	.	[2F/	.	[2a-/	.	[2aa-\	.
(8AA/	.	.	.	.	.	.	.
8BB-/	.	.	.	.	.	.	.
8C/J)	.	.	.	.	.	.	.
=210	=210	=210	=210	=210	=210	=210	=210
2D-\	.	8F/L]	.	4a-/]	.	4aa-\]	.
.	.	8Bn/	.	.	.	.	.
.	.	8B'/	.	8g/L	.	8gg\L	.
.	.	8B'/J	.	8f/J	.	8ff\J	.
=211	=211	=211	=211	=211	=211	=211	=211
(8C/L	.	4c\	.	4e/	.	4ee\	.
8BBn/	.	.	.	.	.	.	.
8C/	.	[4G/	.	[4b-/	.	[4bb-\	.
8D/J)	.	.	.	.	.	.	.
=212	=212	=212	=212	=212	=212	=212	=212
2E-\	.	8G/L]	.	4b-/]	.	4bb-\]	.
.	.	8c#/	.	.	.	.	.
.	.	8c#'/	.	8a/L	.	8aa\L	.
.	.	8c#'/J	.	8g/J	.	8gg\J	.
=213	=213	=213	=213	=213	=213	=213	=213
(8D\L	.	4d\	.	4f#/	.	4ff#\	.
8C#\	.	.	.	.	.	.	.
8D\	.	8F#/L	.	[4ee-\	.	[4eee-\	.
8E\J)	.	8G/J	.	.	.	.	.
=214	=214	=214	=214	=214	=214	=214	=214
(2F#\	.	8A/L	.	4ee\	.	4eee-\]	.
.	.	8d/	.	.	.	.	.
.	.	8A/	.	8dd\L	.	8ddd\L	.
.	.	8d/J	.	8cc\J	.	8ccc\J	.
=215	=215	=215	=215	=215	=215	=215	=215
2G\	.	8B-/L	.	4.b-\	.	4.bb-\	.
.	.	8d/	.	.	.	.	.
.	.	8B-/	.	.	.	.	.
.	.	8d/J	.	8a/	.	8aa\	.
=216	=216	=216	=216	=216	=216	=216	=216
&(2E\&)	.	8B-/L	.	8g/L	.	8gg\L	.
.	.	8c/	.	8a/	.	8aa\	.
.	.	8G/	.	8b-/	.	8bb-\	.
.	.	8c/J	.	8cc/J	.	8ccc\J	.
=217	=217	=217	=217	=217	=217	=217	=217
4.F\	.	8A/L	.	4b-\	.	4bb-\	.
.	.	8c/	.	.	.	.	.
.	.	8c/	.	8a/L	.	8aa\L	.
&(8E\&)	.	8c'/J	.	8g/J	.	8gg\J	.
=218	=218	=218	=218	=218	=218	=218	=218
2D\	.	8c/L	.	8f/L	.	8ff\L	.
.	.	8F/	.	8g/	.	8gg\	.
.	.	8F'/	.	8a/	.	8aa\	.
.	.	8F'/J	.	8f/J	.	8bbn\J	.
=219	=219	=219	=219	=219	=219	=219	=219
8CC'/L	p	8E/	p	24g/LL	p	8ccc\	p
.	.	.	.	24f#/	.	.	.
.	.	.	.	24g/JJ	.	.	.
8C'/	.	4E/ 4G/	.	24a/LL	.	8r	.
.	.	.	.	24g/	.	.	.
.	.	.	.	24fn/JJ	.	.	.
8EE'/	.	.	.	24e/LL	.	4r	.
.	.	.	.	24d#/	.	.	.
.	.	.	.	24e/JJ	.	.	.
8E'/J	.	[8E/ [8G/	.	24f/LL	.	.	.
.	.	.	.	24e/	.	.	.
.	.	.	.	24d#/JJ	.	.	.
=220	=220	=220	=220	=220	=220	=220	=220
8GG'\L	.	8E/L] 8G/]	.	8c'/L	.	2r	.
8G'\	.	8E'/ 8G'/	.	8c'/	.	.	.
8C\	.	8E'/ 8G'/	.	8c'/	.	.	.
8c'\J	.	8E'/J 8G'/	.	8c'/J	.	.	.
=221	=221	=221	=221	=221	=221	=221	=221
8GG/	.	8G'\L	.	8Bn/	.	24ff\LL	.
.	.	.	.	.	.	24ee\	.
.	.	.	.	.	.	24ff\JJ	.
8r	.	8g'\	.	8r	.	24gg\LL	.
.	.	.	.	.	.	24ff\	.
.	.	.	.	.	.	24ee\JJ	.
4r	.	8Bn'\	.	[4G/ [4f/	.	24dd\LL	.
.	.	.	.	.	.	24cc\	.
.	.	.	.	.	.	24dd\JJ	.
.	.	8bn'\J	.	.	.	24ee\LL	.
.	.	.	.	.	.	24dd\	.
.	.	.	.	.	.	24cc\JJ	.
=222	=222	=222	=222	=222	=222	=222	=222
2r	.	8d'\L	.	8G/L] 8f/]	.	8bn'\L	.
.	.	8dd'\	.	8G'/J 8f'/	.	8b'\	.
.	.	8G'\	.	8G'/L 8f'/	.	8b'\	.
.	.	8g'\J	.	8G/J 8f/	.	8b'\J	.
=223	=223	=223	=223	=223	=223	=223	=223
8CC/L	.	[2E/ 2G/	.	24g/LL	.	4cc\	.
.	.	.	.	24f#/	.	.	.
.	.	.	.	24g/JJ	.	.	.
8C'/	.	.	.	24a/LL	.	.	.
.	.	.	.	24g/	.	.	.
.	.	.	.	24fn/JJ	.	.	.
8EE'/	.	.	.	24e/LL	.	4r	.
.	.	.	.	24d#/	.	.	.
.	.	.	.	24e/JJ	.	.	.
8E/J	.	.	.	24f#/LL	.	.	.
.	.	.	.	24e/	.	.	.
.	.	.	.	24dn/JJ	.	.	.
=224	=224	=224	=224	=224	=224	=224	=224
8GG'\L	.	8E/L] 8G/	.	8c'/L	.	2r	.
8G'\	.	8E'/ 8G'/	.	8c'/	.	.	.
8C'\	.	8E'/ 8G'/	.	8c'/	.	.	.
8c'\J	.	8E'/J 8G'/	.	8c'/J	.	.	.
=225	=225	=225	=225	=225	=225	=225	=225
8BB-'\L	.	8C'/L	.	24gg\LL	.	24bb-\LL	.
.	.	.	.	24ff#\	.	24aa\	.
.	.	.	.	24gg\JJ	.	24bb-\JJ	.
8B-'\	.	8c'/	.	24aa\LL	.	24ccc\LL	.
.	.	.	.	24gg\	.	24bb-\	.
.	.	.	.	24ffn\JJ	.	24aa\JJ	.
8E'\	.	8E'/	.	24ee\LL	.	24gg\LL	.
.	.	.	.	24dd#\	.	24ff#\	.
.	.	.	.	24ee\JJ	.	24gg\JJ	.
8e'\J	.	8e'/J	.	24ff\LL	.	24aa\LL	.
.	.	.	.	24ee\	.	24gg\	.
.	.	.	.	24ddn\JJ	.	24ffn\JJ	.
=226	=226	=226	=226	=226	=226	=226	=226
4.f-\	.	8G'\L	.	8cc'\L	.	8ee'\L	.
.	.	8g'\	.	8cc'\	.	8ee'\	.
.	.	8c'\	.	8cc'\	.	8ee'\	.
8e\	.	8cc'\J	.	8cc'\J	.	8ee'\J	.
=227	=227	=227	=227	=227	=227	=227	=227
8CC'/L	.	8C'/L	.	24bb-\LL	.	24ddd\LL	.
.	.	.	.	24aa\	.	24ccc#\	.
.	.	.	.	24ccc\JJ	.	24ddd\JJ	.
8C'/	.	8c'/	.	24ccc\LL	.	24eee\LL	.
.	.	.	.	24bb-\	.	24ddd\	.
.	.	.	.	24aa\JJ	.	24cccn\JJ	.
8EE'/	.	8E'/	.	24gg\LL	.	24bb-\LL	.
.	.	.	.	24ff#\	.	24aa\	.
.	.	.	.	24gg\JJ	.	24bb-\JJ	.
8E'/J	.	8e'/J	.	24aa\LL	.	24ccc\LL	.
.	.	.	.	24gg\	.	24bb-\	.
.	.	.	.	24ff#\JJ	.	24aa\JJ	.
=228	=228	=228	=228	=228	=228	=228	=228
8GG'\L	.	8G'\L	.	8gg'\L	.	8bb-'\L	.
8G'\	.	8g'\	.	8gg'\	.	8bb-'\	.
8C'\	.	8c'\	.	8gg'\	.	8bb-'\	.
8c'\J	.	8cc'\J	.	8gg'\J	.	8bb-'\J	.
=229	=229	=229	=229	=229	=229	=229	=229
4.d-\	.	4.dd-\	.	24gg\LL	.	24bb-\LL	.
.	.	.	.	24ff#\	.	24aa\	.
.	.	.	.	24gg\JJ	.	24bb-\JJ	.
.	.	.	.	24aa\LL	.	24ccc\LL	.
.	.	.	.	24gg\	.	24bb-\	.
.	.	.	.	24ff#\JJ	.	24aa\JJ	.
.	.	.	.	[4gg\	.	[4bb-\	.
&(8c\&)	.	8cc\	.	.	.	.	.
=230	=230	=230	=230	=230	=230	=230	=230
4.d-\	.	4.dd-\	.	24gg\LL]	.	24bb-\LL]	.
.	.	.	.	24ff#\	.	24aa\	.
.	.	.	.	24gg\JJ	.	24bb-\JJ	.
.	.	.	.	24aa\LL	.	24ccc\LL	.
.	.	.	.	24gg\	.	24bb-\	.
.	.	.	.	24ff#\JJ	.	24aa\JJ	.
.	.	.	.	[4gg\	.	[4bb-\	.
&(8c\&)	.	8cc\	.	.	.	.	.
=231	=231	=231	=231	=231	=231	=231	=231
8C\L	.	8r	.	24gg\LL]	.	24bb-\LL]	.
.	.	.	.	24ff#\	.	24aa\	.
.	.	.	.	24gg\JJ	.	24bb-\JJ	.
8c\	.	8cc\	.	24ff#\LL	.	24aa\LL	.
.	.	.	.	24gg\	.	24bb-\	.
.	.	.	.	24ff#\JJ	.	24aa\JJ	.
8C\	.	8r	.	24gg\LL	.	24bb-\LL	.
.	.	.	.	24ff#\	.	24aa\	.
.	.	.	.	24gg\JJ	.	24bb-\JJ	.
8c\J	.	8cc\	.	24ff#\LL	.	24aa\LL	.
.	.	.	.	24gg\	.	24bb-\	.
.	.	.	.	24ff#\JJ	.	24aa\JJ	.
=232	=232	=232	=232	=232	=232	=232	=232
8C\L	.	8r	.	24gg\LL	.	24bb-\LL	.
.	.	.	.	24ff#\	.	24aa\	.
.	.	.	.	24gg\JJ	.	24bb-\JJ	.
8c\	.	8cc\	.	24ff#\LL	.	24aa\LL	.
.	.	.	.	24gg\	.	24bb-\	.
.	.	.	.	24ff#\JJ	.	24aa\JJ	.
8C\	.	8r	.	24gg\LL	.	24bb-\LL	.
.	.	.	.	24ff#\	.	24aa\	.
.	.	.	.	24gg\JJ	.	24bb-\JJ	.
8c\J	.	8cc\	.	24ff#\LL	.	24aa\LL	.
.	.	.	.	24gg\	.	24bb-\	.
.	.	.	.	24ff#\JJ	.	24aa\JJ	.
=233	=233	=233	=233	=233	=233	=233	=233
4CC/	.	4r	.	24gg\LL	.	24bb-\LL	ff
.	.	.	.	24aa\	ff	24ccc\	.
.	.	.	.	24gg\JJ	.	24bb-\JJ	.
.	.	.	.	24ff\LL	.	24aa\LL	.
.	.	.	.	24gg\	.	24bb-\	.
.	.	.	.	24ff\JJ	.	24aa\JJ	.
4C/	ff	4C/	ff	24ee\LL	.	24gg\LL	.
.	.	.	.	24ff\	.	24aa\	.
.	.	.	.	24ee\JJ	.	24gg\JJ	.
.	.	.	.	24dd\LL	.	24ff\LL	.
.	.	.	.	24ee\	.	24gg\	.
.	.	.	.	24dd\JJ	.	24ff\JJ	.
=234	=234	=234	=234	=234	=234	=234	=234
4.c\	.	4.C/ 4.c/	.	24cc\LL	.	24ee\LL	.
.	.	.	.	24dd\	.	24ff\	.
.	.	.	.	24cc\JJ	.	24ee\JJ	.
.	.	.	.	24b-\LL	.	24dd\LL	.
.	.	.	.	24cc\	.	24ee\	.
.	.	.	.	24b-\JJ	.	24dd\JJ	.
.	.	.	.	24a/LL	.	24cc\LL	.
.	.	.	.	24b-/	.	24dd\	.
.	.	.	.	24a/JJ	.	24cc\JJ	.
8C/	.	16d\LL	.	24g/LL	.	24b-\LL	.
.	.	.	.	24a/	.	24cc\	.
.	.	16e\JJ	.	.	.	.	.
.	.	.	.	24g/JJ	.	24b-\JJ	.
=235	=235	=235	=235	=235	=235	=235	=235
8F\	p	24f\LL	p	8f/	p	8a/	p
.	.	24e\	.	.	.	.	.
.	.	24f\JJ	.	.	.	.	.
8r	.	24g\LL	.	8r	.	8r	.
.	.	24f\	.	.	.	.	.
.	.	24e\JJ	.	.	.	.	.
4r	.	24d\LL	.	4r	.	4r	.
.	.	24c\	.	.	.	.	.
.	.	24B-\JJ	.	.	.	.	.
.	.	24A/LL	.	.	.	.	.
.	.	24G/	.	.	.	.	.
.	.	24F/JJ	.	.	.	.	.
=236	=236	=236	=236	=236	=236	=236	=236
8GG'/L	.	8E'/L	.	8B-'/L	.	4r	.
8GG'/	.	8E'/	.	8B-'/	.	.	.
8EE'/J	.	8C'/J 8G'/	.	8b-'/J	.	8bb-'\L	.
8r	.	8r	.	8r	.	8bb-'\J	.
=237	=237	=237	=237	=237	=237	=237	=237
2r	.	24g\LL	.	2r	.	8ee'\	.
.	.	24f#\	.	.	.	.	.
.	.	24g\JJ	.	.	.	.	.
.	.	24a\LL	.	.	.	8r	.
.	.	24g\	.	.	.	.	.
.	.	24fn\JJ	.	.	.	.	.
.	.	24e\LL	.	.	.	4r	.
.	.	24d\	.	.	.	.	.
.	.	24c\JJ	.	.	.	.	.
.	.	24B-/LL	.	.	.	.	.
.	.	24A/	.	.	.	.	.
.	.	24G/JJ	.	.	.	.	.
=238	=238	=238	=238	=238	=238	=238	=238
8AA'/L	.	8F'/L	.	8c'/L	.	4r	.
8AA'/	.	8F'/	.	8c'/	.	.	.
8FF'/J	.	8A'/J	.	8cc'/J	.	8ccc'\L	.
8r	.	8r	.	8r	.	8ccc'\J	.
=239	=239	=239	=239	=239	=239	=239	=239
8r	.	8r	.	8r	.	24cc\LL	.
.	.	.	.	.	.	24bn\	.
.	.	.	.	.	.	24cc\JJ	.
8E/L	.	4c\	.	8g/L	.	24dd\LL	.
.	.	.	.	.	.	24cc\	.
.	.	.	.	.	.	24b-\JJ	.
&(8F/&)	.	.	.	8c/	.	8a\L	.
8FF'/J	.	8c\	.	8a/J	.	16ff\Jk	.
.	.	.	.	.	.	16r	.
=240	=240	=240	=240	=240	=240	=240	=240
8r	.	8r	.	8r	.	24cc\LL	.
.	.	.	.	.	.	24bn\	.
.	.	.	.	.	.	24cc\JJ	.
8E/L	.	4c\	.	8g/L	.	24dd\LL	.
.	.	.	.	.	.	24cc\	.
.	.	.	.	.	.	24b-\JJ	.
&(8F/&)	.	.	.	8c/	.	8a\L	.
8FF'/J	.	8c\	.	8a/J	.	16aa\Jk	.
.	.	.	.	.	.	16r	.
=241	=241	=241	=241	=241	=241	=241	=241
8r	.	8r	.	8r	.	24cc\LL	.
.	.	.	.	.	.	24bn\	.
.	.	.	.	.	.	24cc\JJ	.
8E\L	.	4c\	.	8g/L	.	24dd\LL	.
.	.	.	.	.	.	24cc\	.
.	.	.	.	.	.	24b\JJ	.
8F\	.	.	.	8c/	.	8a\L	.
&(8F#\J&)	.	8d\	.	8cc/J	.	16ccc\Jk	.
.	.	.	.	.	.	16r	.
=242	=242	=242	=242	=242	=242	=242	=242
8G'/L	.	8e\L	.	8g/L	.	8cc\L	.
8GG'/	.	8f\	.	8bn/	.	16ee\L	.
.	.	.	.	.	.	16dd\J	.
8C'/J	.	8e\J	.	8g/J	.	8cc\J	.
8r	.	8r	.	8r	.	8r	.
=243	=243	=243	=243	=243	=243	=243	=243
4r	.	4r	.	24a/LL	f	24ff\LL	f
.	.	.	.	24g/	.	24ee\	.
.	.	.	.	24a/JJ	.	24ff\JJ	.
.	.	.	.	24b-/LL	.	24gg\LL	.
.	.	.	.	24a/	.	24ff\	.
.	.	.	.	24g/JJ	.	24ee\JJ	.
4r	.	24a-\LL	f	24f/LL	.	24dd\LL	.
.	.	24g\	.	24e/	.	24cc\	.
.	.	24f\JJ	.	24d/JJ	.	24b-\JJ	.
.	.	24e\LL	.	24c/LL	.	24a/LL	.
.	.	24d\	.	24B-/	.	24g/	.
.	.	24c\JJ	.	24A/JJ	.	24f/JJ	.
=244	=244	=244	=244	=244	=244	=244	=244
4r	.	8A#'\L	.	8G'/L	.	8e'/L	.
.	.	8B-'\	.	8G'/J	.	8e'/	.
8C'/L	.	8e'\J	.	8B-'/	.	8g'/J	.
8C'/J	f	8r	.	8r	.	8r	.
=245	=245	=245	=245	=245	=245	=245	=245
8CC/	.	4r	.	24b-/LL	f	24gg\LL	f
.	.	.	.	24a/	.	24ff#\	.
.	.	.	.	24b-/JJ	.	24gg\JJ	.
8r	.	.	.	24cc/LL	.	24aa\LL	.
.	.	.	.	24b-/	.	24gg\	.
.	.	.	.	24a/JJ	.	24ffn\JJ	.
4r	.	24b-\LL	f	24g/LL	.	24ee\LL	.
.	.	24a\	.	24f/	.	24dd\	.
.	.	24g\JJ	.	24e/JJ	.	24cc\JJ	.
.	.	24f\LL	.	24d/LL	.	24b-/LL	.
.	.	24e\	.	24c/	.	24a/	.
.	.	24d\JJ	.	24B-/JJ	.	24g/JJ	.
=246	=246	=246	=246	=246	=246	=246	=246
4r	.	8c'\L	.	8A'/L	.	8f'/L	.
.	.	8c'\	.	8A'/	.	8f'/	.
8F\L	f	8f'\J	.	8c'/J	.	8a'/J	.
8F\J	.	8r	.	8r	.	8r	.
=247	=247	=247	=247	=247	=247	=247	=247
8FF'/L	p	8r	.	8r	.	24cc\LL	p
.	.	.	.	.	.	24bn\	.
.	.	.	.	.	.	24cc\JJ	.
8E/	.	4c\	p	8g/L	p	24dd\LL	.
.	.	.	.	.	.	24cc\	.
.	.	.	.	.	.	24b\JJ	.
&(8F/&)	.	.	.	8c/	.	8a\L	.
8FF'/J	.	8c\	.	8a/J	.	16ff\Jk	.
.	.	.	.	.	.	16r	.
=248	=248	=248	=248	=248	=248	=248	=248
8r	.	8r	.	8r	.	24cc\LL	.
.	.	.	.	.	.	24bn\	.
.	.	.	.	.	.	24cc\JJ	.
8E/L	.	4c\	.	8g/L	.	24dd\LL	.
.	.	.	.	.	.	24cc\	.
.	.	.	.	.	.	24b\JJ	.
&(8F/&)	.	.	.	8c/	.	8a\L	.
8FF'/J	.	8c\	.	8a/J	.	16aa\Jk	.
.	.	.	.	.	.	16r	.
=249	=249	=249	=249	=249	=249	=249	=249
8r	.	8r	.	8r	.	24cc\LL	.
.	.	.	.	.	.	24bn\	.
.	.	.	.	.	.	24cc\JJ	.
8E\L	.	4c\	.	8g/L	.	24dd\LL	.
.	.	.	.	.	.	24cc\	.
.	.	.	.	.	.	24b-\JJ	.
&(8F\&)	.	.	.	8c/	.	8a'\L	.
8F#'\J	.	8A/	.	8cc'/J	.	8eee-'\J	.
=250	=250	=250	=250	=250	=250	=250	=250
8G'\L	.	8B-'/L	.	8b-'/L	.	8ddd'\L	.
8C#'\	.	8F'/	.	8b-'/	.	8eeen'\J	.
8D'\	.	8G'/	.	8a'/	.	8fff'\L	.
8BBn'\J	.	8d'/J	.	8f'/J	.	8g'\J	.
=251	=251	=251	=251	=251	=251	=251	=251
4Cn/	.	4c\	.	4f/	.	4a/	.
4CC/	f	4C/	f	4B-/	f	4G/ 4e/	f
=252	=252	=252	=252	=252	=252	=252	=252
4FF/	.	4F/	.	4A/	.	4A/ 4f/	.
4r	.	4r	.	4r	.	4r	.
=253	=253	=253	=253	=253	=253	=253	=253
2r	.	2r	.	4r	.	16A/LL	p
.	.	.	.	.	.	16c/	.
.	.	.	.	.	.	16g/	.
.	.	.	.	.	.	16f/JJ	.
.	.	.	.	16A/LL	p	16c/LL	.
.	.	.	.	16c/	.	16f/	.
.	.	.	.	16g/	.	16b-/	.
.	.	.	.	16f/JJ	.	16a/JJ	.
=254	=254	=254	=254	=254	=254	=254	=254
2r	.	16B-/LL	p	4e/	.	4g/	.
.	.	16c/	.	.	.	.	.
.	.	16B-/	.	.	.	.	.
.	.	16c/JJ	.	.	.	.	.
.	.	16B-/LL	.	4r	.	4r	.
.	.	16c/	.	.	.	.	.
.	.	16G/	.	.	.	.	.
.	.	16E/JJ	.	.	.	.	.
=255	=255	=255	=255	=255	=255	=255	=255
2r	.	4C/	.	4r	.	16c/LL	.
.	.	.	.	.	.	16e/	.
.	.	.	.	.	.	16a/	.
.	.	.	.	.	.	16g/JJ	.
.	.	4r	.	16c/LL	.	16e/LL	.
.	.	.	.	16e/	.	16g/	.
.	.	.	.	16a/	.	16cc/	.
.	.	.	.	16g/JJ	.	16b-/JJ	.
=256	=256	=256	=256	=256	=256	=256	=256
16E\LL	p	2r	.	4f/	.	4a/	.
16F\	.	.	.	.	.	.	.
16E\	.	.	.	.	.	.	.
16F\JJ	.	.	.	.	.	.	.
16E/LL	.	.	.	4r	.	4r	.
16F/	.	.	.	.	.	.	.
16C/	.	.	.	.	.	.	.
&(16AA/JJ&)	.	.	.	.	.	.	.
=257	=257	=257	=257	=257	=257	=257	=257
4FF/	.	2r	.	2r	.	16c/LL	.
.	.	.	.	.	.	16f/	.
.	.	.	.	.	.	16b-/	.
.	.	.	.	.	.	16a/JJ	.
4r	.	.	.	.	.	16f/LL	.
.	.	.	.	.	.	16a/	.
.	.	.	.	.	.	16dd/	.
.	.	.	.	.	.	16cc/JJ	.
=258	=258	=258	=258	=258	=258	=258	=258
4r	.	4r	.	4r	.	16a\LL	.
.	.	.	.	.	.	16cc\	.
.	.	.	.	.	.	16gg\	.
.	.	.	.	.	.	16ff\JJ	.
8r	.	8r	.	8r	.	16cc\LL	.
.	.	.	.	.	.	16ff\	.
8F\	.	[8c\	.	8a/	.	16bb-\	.
.	.	.	.	.	.	16aa\JJ	.
=259	=259	=259	=259	=259	=259	=259	=259
&(8E\L&)	.	8c'\L	.	8g'/L	.	16gg\LL	.
.	.	.	.	.	.	16ff\	.
8C'\	.	8c'\	.	8e'/	.	16ee\	.
.	.	.	.	.	.	16dd\JJ	.
8E'\	.	8c'\	.	8g'/	.	16cc#\LL	.
.	.	.	.	.	.	16cc#\	.
8C'\J	.	8c'\J	.	8e'/J	.	16dd\	.
.	.	.	.	.	.	16g\JJ	.
=260	=260	=260	=260	=260	=260	=260	=260
8F/L	.	4.c\	.	4g/	.	4b-\	.
8FF/	.	.	.	.	.	.	.
8F/J	.	.	.	8f/	.	8a/	.
8A'\	.	8a'\	.	8a'/	.	8a'/	.
=261	=261	=261	=261	=261	=261	=261	=261
4.AA/	f	4.A/	f	4.A/	f	4.A/	f
24AA/LL	.	24A/LL	.	24A/LL	.	24A/LL	.
24BBn/	.	24Bn/	.	24Bn/	.	24Bn/	.
&(24C#/JJ&)	.	24c#/JJ	.	24c#/JJ	.	24c/JJ	.
=262	=262	=262	=262	=262	=262	=262	=262
8D'\L	.	8d'/L	.	8d'/L	.	8d'/L	.
8E'\	.	8E'/	.	8e'/	.	8e'/	.
8F'\	.	8F'/	.	8f'/	.	8f'/	.
8G'\J	.	8G'/J	.	8g'/J	.	8g'/J	.
=263	=263	=263	=263	=263	=263	=263	=263
8A'\L	.	8A'/L	.	8a\L	.	8a'\L	.
8Bn'\	.	8Bn/	.	8bn\	.	8bn'\	.
8c'\	.	8c/	.	8cc'\	.	8cc'\	.
8c#\J	.	8c#'/J	.	8cc#'\J	.	8cc#'\J	.
=264	=264	=264	=264	=264	=264	=264	=264
8d'\L	.	8d'\L	.	8dd\L	.	8dd'\L	.
8e'\J	.	8e'\J	.	8ee\J	.	8ee'\J	.
dq/LL	.	dq/LL	.	ddq/LL	.	ddq/LL	.
&(eq/JJ&)	.	eq/JJ	.	eeq/JJ	.	eeq/JJ	.
[4f\	.	[4f\	.	[4ff\	.	[4ff\	.
=265	=265	=265	=265	=265	=265	=265	=265
8f\L]	.	8f\L]	.	8ff\L]	.	8ff\L]	.
&(8e\&)	.	8e\	.	8ee\	.	8ee\	.
8d\	.	8d\	.	8dd\	.	8dd\	.
&(8c\J&)	.	8c\J	.	8cc\J	.	8cc\J	.
=266	=266	=266	=266	=266	=266	=266	=266
8B-\L	.	8B-/L	.	8b-/L	.	8b-/L	.
&(8A\&)	.	8A/	.	8a/	.	8a/	.
8G\	.	8G/	.	8g/	.	8g/	.
&(8F\J&)	.	8F/J	.	8f/J	.	8f/J	.
=267	=267	=267	=267	=267	=267	=267	=267
8E\L	.	8E/L	.	8e/L	.	8e/L	.
&(8F\&)	.	8F/	.	8f/	.	8f/J	.
8E-'\	.	8E-'/	.	8e-'/	.	8e-'/L	.
&(8C'\J&)	.	8C'/J	.	8c'/J	.	8c'/J	.
=268	=268	=268	=268	=268	=268	=268	=268
8BB-/	p	8B-/	p	8B-/	p	16B-/LL	p
.	.	.	.	.	.	16d/	.
8r	.	8r	.	8r	.	16f/	.
.	.	.	.	.	.	16e-/JJ	.
4r	.	4r	.	16B-/LL	.	16d/LL	.
.	.	.	.	16d/	.	16f/	.
.	.	.	.	16f/	.	16dd/	.
.	.	.	.	16d/JJ	.	16b-/JJ	.
=269	=269	=269	=269	=269	=269	=269	=269
16E\LL	.	2r	.	4c/	.	4a/	.
16F\	.	.	.	.	.	.	.
16E\	.	.	.	.	.	.	.
16F\JJ	.	.	.	.	.	.	.
16E/LL	.	.	.	4r	.	4r	.
16F/	.	.	.	.	.	.	.
&(16C/&)	.	.	.	.	.	.	.
16AA/JJ	.	.	.	.	.	.	.
=270	=270	=270	=270	=270	=270	=270	=270
4FF/	.	16F/LL	.	4r	.	2r	.
.	.	16A/	.	.	.	.	.
.	.	16c/	.	.	.	.	.
.	.	16B-/JJ	.	.	.	.	.
4r	.	16A\LL	.	16r	.	.	.
.	.	16c\	.	16A/LL	.	.	.
.	.	16f\	.	16d/	.	.	.
.	.	16e-\JJ	.	16c/JJ	.	.	.
=271	=271	=271	=271	=271	=271	=271	=271
16A\LL	.	4d\	.	4B-/	.	2r	.
16B-\	.	.	.	.	.	.	.
16A\	.	.	.	.	.	.	.
16B-\JJ	.	.	.	.	.	.	.
16A\LL	.	4r	.	4r	.	.	.
16c\	.	.	.	.	.	.	.
16F\	.	.	.	.	.	.	.
&(16D\JJ&)	.	.	.	.	.	.	.
=272	=272	=272	=272	=272	=272	=272	=272
4BB-/	.	4r	.	16G/LL	.	2r	.
.	.	.	.	16B-/	.	.	.
.	.	.	.	16d/	.	.	.
.	.	.	.	16c/JJ	.	.	.
4r	.	16G/LL	.	16B-/LL	.	.	.
.	.	16B-/	.	16d/	.	.	.
.	.	16d/	.	16b-/	.	.	.
.	.	16B-/JJ	.	16g/JJ	.	.	.
=273	=273	=273	=273	=273	=273	=273	=273
2r	.	4A/	.	4f#/	.	16ccc#\LL	.
.	.	.	.	.	.	16ddd\	.
.	.	.	.	.	.	16ccc#\	.
.	.	.	.	.	.	16ddd\JJ	.
.	.	4r	.	4r	.	16ccc#\LL	.
.	.	.	.	.	.	16ddd\	.
.	.	.	.	.	.	16aa\	.
.	.	.	.	.	.	16ff#\JJ	.
=274	=274	=274	=274	=274	=274	=274	=274
2r	.	4r	.	16d/LL	.	4dd\	.
.	.	.	.	16f#/	.	.	.
.	.	.	.	16a/	.	.	.
.	.	.	.	16g/JJ	.	.	.
.	.	16D/LL	.	16f#/LL	.	4r	.
.	.	16F#/	.	16a/	.	.	.
.	.	16B-/	.	16dd/	.	.	.
.	.	16A/JJ	.	16cc/JJ	.	.	.
=275	=275	=275	=275	=275	=275	=275	=275
8GG'/L	.	8G/L	.	16r	.	2r	.
.	.	.	.	16d/LL	.	.	.
8G'/	.	8d/J	.	16cc/	.	.	.
.	.	.	.	16b-/JJ	.	.	.
8FF'/	.	8r	.	16r	.	.	.
.	.	.	.	16d/LL	.	.	.
8F'/J	.	8d\	.	16cc/	.	.	.
.	.	.	.	16bn/JJ	.	.	.
=276	=276	=276	=276	=276	=276	=276	=276
8EE'/L	.	8r	.	16r	.	2r	.
.	.	.	.	16g\LL	.	.	.
8CC'/J	.	8G/	.	16dd\	.	.	.
.	.	.	.	16cc\JJ	.	.	.
8CC'/L	.	8r	.	16r	.	.	.
.	.	.	.	16e/LL	.	.	.
8C'/J	.	8g\	.	16cc/	.	.	.
.	.	.	.	16b-/JJ	.	.	.
=277	=277	=277	=277	=277	=277	=277	=277
8FF'/L	.	8c\	.	16r	.	4r	.
.	.	.	.	16a\LL	.	.	.
8F'/	.	8r	.	16dd\	.	.	.
.	.	.	.	16cc\JJ	.	.	.
8EE'/	.	4G/	.	16r	.	[4ccc\	.
.	.	.	.	16g\LL	.	.	.
8E'/J	.	.	.	16dd\	.	.	.
.	.	.	.	16cc\JJ	.	.	.
=278	=278	=278	=278	=278	=278	=278	=278
8DD'/L	.	4A/	.	16r	.	4ccc\]	.
.	.	.	.	16a\LL	.	.	.
8D'/	.	.	.	16aa\	.	.	.
.	.	.	.	16ff\JJ	.	.	.
8GG'/	.	4G/	.	16r	.	4bbn\	.
.	.	.	.	16f\LL	.	.	.
8G'/J	.	.	.	16ee\	.	.	.
.	.	.	.	16dd\JJ	.	.	.
=279	=279	=279	=279	=279	=279	=279	=279
8C'/L	p	2E/ [2G/	p	8e/ 8cc/	p	4.ccc\	p
8GG/	.	.	.	8r	.	.	.
8BBn/	.	.	.	4r	.	.	.
8C'/J	.	.	.	.	.	32ddd\LLL	.
.	.	.	.	.	.	32ccc\	.
.	.	.	.	.	.	32bbn\	.
.	.	.	.	.	.	32aa\JJJ	.
=280	=280	=280	=280	=280	=280	=280	=280
8D/L	.	2F/ 2G/_	.	8r	.	8gg'\L	.
8GG/	.	.	.	8g'/L	.	8gg'\	.
8C#/	.	.	.	8g'/	.	8gg'\	.
&(8D/J&)	.	.	.	8g'/J	.	8gg'\J	.
=281	=281	=281	=281	=281	=281	=281	=281
8E/L	.	8G/]	.	4.cc\	.	4gg\	.
8GG/	.	8G/L	.	.	.	.	.
8D/	.	8Bn/	.	.	.	4r	.
8E/J	.	8c/J	.	32dd\LLL	.	.	.
.	.	.	.	32cc\	.	.	.
.	.	.	.	32bn\	.	.	.
.	.	.	.	32a\JJJ	.	.	.
=282	=282	=282	=282	=282	=282	=282	=282
8F/L	.	8d/L	.	8g'/L	.	8r	.
8GG/	.	8G/	.	8g'/	.	8gg'\L	.
8AA/	.	8c/	.	8g'/	.	8gg'\	.
&(8BBn/J&)	.	8d/J	.	8g'/J	.	8gg'\J	.
=283	=283	=283	=283	=283	=283	=283	=283
8C/L	.	8e/L	.	8g/	.	16ddd\LL	.
.	.	.	.	.	.	16ccc\	.
8GG/	.	8G/	.	8r	.	16bbn\	.
.	.	.	.	.	.	16ccc\JJ	.
8BBn/	.	8d/	.	4r	.	16ddd\LL	.
.	.	.	.	.	.	16ccc\	.
8C/J	.	8e/J	.	.	.	16bb\	.
.	.	.	.	.	.	16aa\JJ	.
=284	=284	=284	=284	=284	=284	=284	=284
8D/L	.	8f\L	.	8r	.	8gg'\L	.
8GG/	.	8G\	.	8g'/L	.	8gg'\	.
8C/	.	8e\	.	8g'/	.	8gg'\	.
&(8D/J&)	.	8f\J	.	8g'/J	.	8gg'\J	.
=285	=285	=285	=285	=285	=285	=285	=285
8E\L	.	8g\	.	16dd\LL	.	4gg\	.
.	.	.	.	16cc\	.	.	.
8C\	.	4e\	.	16bn\	.	.	.
.	.	.	.	16cc\JJ	.	.	.
8E\	.	.	.	16dd\LL	.	4r	.
.	.	.	.	16cc\	.	.	.
8G\J	.	[8e\	.	16b-\	.	.	.
.	.	.	.	16a\JJ	.	.	.
=286	=286	=286	=286	=286	=286	=286	=286
&(8c/L&)	.	8e\]	.	8b-\	.	8r	.
8CC/J	.	8E/L	.	8B-'/L	.	8cc'\L	.
8DD/L	.	8F/	.	8B-'/	.	8cc'\	.
8EE/J	.	8G/J	.	8B-'/J	.	8cc'\J	.
=287	=287	=287	=287	=287	=287	=287	=287
&(8FF/L&)	p	[2C/ 2A/	p	4A/	p	4.ff\	p
8CC/	.	.	.	.	.	.	.
8EE/	.	.	.	4r	.	.	.
8FF/J	.	.	.	.	.	32gg\LLL	.
.	.	.	.	.	.	32ff\	.
.	.	.	.	.	.	32ee\	.
.	.	.	.	.	.	32dd\JJJ	.
=288	=288	=288	=288	=288	=288	=288	=288
8GG/L	.	[2C/ 2B-/	.	8r	.	8cc'\L	.
8CC/	.	.	.	8c'/L	.	8cc'\	.
8FF#/	.	.	.	8c'/	.	8cc'\	.
&(8GG/J&)	.	.	.	8c'/J	.	8cc'\J	.
=289	=289	=289	=289	=289	=289	=289	=289
8AA/L	.	8C/] 8c/	.	4.f/	.	4cc\	.
8CC/	.	8C/L	.	.	.	.	.
8GG/	.	8E/	.	.	.	4r	.
8AA/J	.	8F/J	.	32g/LLL	.	.	.
.	.	.	.	32f/	.	.	.
.	.	.	.	32e/	.	.	.
.	.	.	.	32d/JJJ	.	.	.
=290	=290	=290	=290	=290	=290	=290	=290
8BB-/L	.	8G/L	.	8c'/L	.	8r	.
8CC/	.	8C/	.	8c'/	.	8cc'\L	.
8DD/	.	8F/	.	8c'/	.	8cc'\	.
&(8EE/J&)	.	8G/J	.	8c'/J	.	8cc'\J	.
=291	=291	=291	=291	=291	=291	=291	=291
8FF/L	.	8A/L	.	4c/	.	16gg\LL	.
.	.	.	.	.	.	16ff\	.
8CC/	.	8C/	.	.	.	16ee\	.
.	.	.	.	.	.	16ff\JJ	.
8EE/	.	8G/	.	4r	.	16gg\LL	.
.	.	.	.	.	.	16ff\	.
8FF/J	.	8A/J	.	.	.	16ee\	.
.	.	.	.	.	.	16dd\JJ	.
=292	=292	=292	=292	=292	=292	=292	=292
8GG/L	.	8B-/L	.	8r	.	8cc'\L	.
8CC/	.	8C/	.	8c'/L	.	8cc'\	.
&(8FF/&)	.	8A/	.	8c'/	.	8cc'\	.
8GG/J	.	8B-/J	.	8c'/J	.	8cc'\J	.
=293	=293	=293	=293	=293	=293	=293	=293
8AA/L	.	8c/L	.	16g/LL	.	4cc\	.
.	.	.	.	16f/	.	.	.
8CC/	.	8C/	.	16e/	.	.	.
.	.	.	.	16f/JJ	.	.	.
8GG/	.	8E/	.	16g/LL	.	4r	.
.	.	.	.	16f/	.	.	.
8AA/J	.	8F/J	.	16e/	.	.	.
.	.	.	.	16d/JJ	.	.	.
=294	=294	=294	=294	=294	=294	=294	=294
8BB-/L	.	8G/L	.	8c'/L	.	8r	.
8CC/	.	8E/	.	8b-/	.	8ccc'\L	.
&(8DD/&)	.	8F/	.	8b-'/	.	8ccc'\	.
8EE/J	.	8G/J	.	8b-'/J	.	8ccc'\J	.
=295	=295	=295	=295	=295	=295	=295	=295
8FF/	p	8A/	p	8a/	p	16ddd\LL	p
.	.	.	.	.	.	16ccc\	.
8r	.	8r	.	8r	.	16bbn\	.
.	.	.	.	.	.	16ccc\JJ	.
4r	.	8r	.	8r	.	16ddd\LL	.
.	.	.	.	.	.	16ccc\	.
.	.	8e\	.	[8cc\	.	16bb-\	.
.	.	.	.	.	.	16gg\JJ	.
=296	=296	=296	=296	=296	=296	=296	=296
2r	.	8f\	.	8cc\L]	.	16bb-\LL	.
.	.	.	.	.	.	16aa\	.
.	.	8r	.	8ff\J	.	16gg#\	.
.	.	.	.	.	.	16aa\JJ	.
.	.	8r	.	8r	.	16bb-\LL	.
.	.	.	.	.	.	16aa\	.
.	.	8c#\	.	[8a/	.	16ggn\	.
.	.	.	.	.	.	16ee\JJ	.
=297	=297	=297	=297	=297	=297	=297	=297
2r	.	8d\	.	8a\L]	.	16gg\LL	.
.	.	.	.	.	.	16ff\	.
.	.	8r	.	8dd\J	.	16ee\	.
.	.	.	.	.	.	16ff\JJ	.
.	.	8r	.	8r	.	16gg\LL	.
.	.	.	.	.	.	16ff\	.
.	.	8A/	.	[8f/	.	16ee-\	.
.	.	.	.	.	.	16cc\JJ	.
=298	=298	=298	=298	=298	=298	=298	=298
2r	.	8B-/	.	8f/]	.	16cc#\LL	.
.	.	.	.	.	.	16dd\	.
.	.	8r	.	8r	.	16ee-\	.
.	.	.	.	.	.	16een\JJ	.
.	.	4r	.	4r	.	16ff\LL	.
.	.	.	.	.	.	16ff#\	.
.	.	.	.	.	.	16gg\	.
.	.	.	.	.	.	16aa-\JJ	.
=299	=299	=299	=299	=299	=299	=299	=299
8B-\	.	8r	.	8r	.	16aa\LL	.
.	.	.	.	.	.	16bb-\	.
8r	.	8f\	.	8dd\	.	16bbn\	.
.	.	.	.	.	.	16ccc\JJ	.
8B-\	.	8r	.	8r	.	16ccc#\LL	.
.	.	.	.	.	.	16ddd\	.
8r	.	8b-\	.	8dd\	.	16bb-\	.
.	.	.	.	.	.	16gg\JJ	.
=300	=300	=300	=300	=300	=300	=300	=300
8c\	.	8r	.	8r	.	16gg\LL	.
.	.	.	.	.	.	16ff\	.
8r	.	8a\	.	8cc\	.	16ff'\	.
.	.	.	.	.	.	16ff'\JJ	.
8C/	.	8r	.	8r	.	16ff\LL	.
.	.	.	.	.	.	16ee\	.
8r	.	8g\	.	8b-\	.	16ee'\	.
.	.	.	.	.	.	16ee'\JJ	.
=301	=301	=301	=301	=301	=301	=301	=301
4r	.	2r	.	16dd\LL	.	4r	.
.	.	.	.	16cc\	.	.	.
.	.	.	.	16bn\	.	.	.
.	.	.	.	16cc\JJ	.	.	.
8r	.	.	.	16dd\LL	.	8r	.
.	.	.	.	16cc\	.	.	.
8E\	.	.	.	16b-\	.	[8ccc\	.
.	.	.	.	16g\JJ	.	.	.
=302	=302	=302	=302	=302	=302	=302	=302
8F\	.	8r	.	16b-/LL	.	8ccc\L]	.
.	.	.	.	16a/	.	.	.
8r	.	8c\L	.	16g#/	.	8fff\J	.
.	.	.	.	16a/JJ	.	.	.
8r	.	8f\J	.	16b-/LL	.	8r	.
.	.	.	.	16a/	.	.	.
8C#/	.	8r	.	16gn/	.	8aa\	.
.	.	.	.	16e/JJ	.	.	.
=303	=303	=303	=303	=303	=303	=303	=303
8D\	.	8r	.	4f/	.	16ggg\LL	.
.	.	.	.	.	.	16fff\	.
8r	.	8A/L	.	.	.	16eee\	.
.	.	.	.	.	.	16fff\JJ	.
8r	.	8d/J	.	8r	.	16ggg\LL	.
.	.	.	.	.	.	16fff\	.
8AA/	.	8r	.	[8f/	.	16eee\	.
.	.	.	.	.	.	16ccc\JJ	.
=304	=304	=304	=304	=304	=304	=304	=304
8BB-/	.	8r	.	8f/L]	.	16eee-\LL	.
.	.	.	.	.	.	16ddd\	.
8r	.	8F/L	.	8b-/J	.	16ccc#\	.
.	.	.	.	.	.	16ddd\JJ	.
8r	.	8B-/	.	8r	.	16eee-\LL	.
.	.	.	.	.	.	16ddd\	.
8FF#/	.	[8D/J	.	[8d/	.	16cccn\	.
.	.	.	.	.	.	16aa\JJ	.
=305	=305	=305	=305	=305	=305	=305	=305
8GG/	.	8D/L]	.	8d/L]	.	16ccc\LL	.
.	.	.	.	.	.	16bb-\	.
8r	.	8B-/	.	8dd/	.	16ddd\	.
.	.	.	.	.	.	16ccc\JJ	.
4r	.	8B-'/	.	8dd'/	.	16bb-\LL	.
.	.	.	.	.	.	16aa\	.
.	.	8B-'/J	.	8dd'/J	.	16gg\	.
.	.	.	.	.	.	16ff\JJ	.
=306	=306	=306	=306	=306	=306	=306	=306
8CC/L	.	4B-/	.	4dd\	.	16ee\LL	.
.	.	.	.	.	.	16ff\	.
8C/	.	.	.	.	.	16gg\	.
.	.	.	.	.	.	16aa\JJ	.
8C/	.	8A/L	.	8cc\L	.	16bb-\LL	.
.	.	.	.	.	.	16ccc\	.
8C/J	.	8G/J	.	8b-\J	.	16ddd\	.
.	.	.	.	.	.	16eee\JJ	.
=307	=307	=307	=307	=307	=307	=307	=307
8FF/	p	8F'/	p	8a/	p	16fff'\LL	p
.	.	.	.	.	.	16ccc\	.
8r	.	8f\L	.	[4.cc\	.	16aaa\	.
.	.	.	.	.	.	16fff\JJ	.
8r	.	8g\	.	.	.	16fff\LL	.
.	.	.	.	.	.	16eee\	.
8c\	.	8b-\J	.	.	.	16ddd\	.
.	.	.	.	.	.	16eee\JJ	.
=308	=308	=308	=308	=308	=308	=308	=308
8f\	.	8a\L	.	8cc\]	.	16fff'\LL	.
.	.	.	.	.	.	16ccc\	.
8r	.	8f\	.	[4.cc\	.	16aaa\	.
.	.	.	.	.	.	16fff\JJ	.
8r	.	8g\	.	.	.	16fff\LL	.
.	.	.	.	.	.	16eee\	.
8c\	.	8b-\J	.	.	.	16ddd\	.
.	.	.	.	.	.	16eee\JJ	.
=309	=309	=309	=309	=309	=309	=309	=309
8f\L	.	8a\L	.	8cc\L]	.	16fff\LL	.
.	.	.	.	.	.	16aaa\	.
8f\J	.	8a\	.	8cc\	.	16ccc\	.
.	.	.	.	.	.	16fff\JJ	.
8r	.	8b-\	.	8dd\	.	16ddd\LL	.
.	.	.	.	.	.	16fff\	.
8B-\	.	8g\J	.	8b-\J	.	16bb-\	.
.	.	.	.	.	.	16ddd\JJ	.
=310	=310	=310	=310	=310	=310	=310	=310
8r	.	8c/L	.	8a/L	.	16aa\LL	.
.	.	.	.	.	.	16ccc\	.
8c\	.	8A/	.	8f/	.	16ff\	.
.	.	.	.	.	.	16aa\JJ	.
8r	.	8B-/	.	8g/	.	16gg\LL	.
.	.	.	.	.	.	16bb-\	.
8C/	.	8G/J	.	8e/J	.	16ee\	.
.	.	.	.	.	.	16gg\JJ	.
=311	=311	=311	=311	=311	=311	=311	=311
8r	.	16A-'\LL	.	16f\LL	.	8ff\	p
.	.	16c\	.	16cc\	.	.	.
8F\L	.	16a-\	.	16aa-\	.	[4.ccc\	.
.	.	16f\JJ	.	16ff\JJ	.	.	.
8G\	.	16f\LL	.	16ff\LL	.	.	.
.	.	16e\	.	16ee\	.	.	.
8C\J	.	16d\	.	16dd\	.	.	.
.	.	16e\JJ	.	16ee\JJ	.	.	.
=312	=312	=312	=312	=312	=312	=312	=312
8A-'\L	.	16f'\LL	.	16ff'\LL	.	8ccc\]	.
.	.	16c\	.	16cc\	.	.	.
8F\	.	16a-\	.	16aa\	.	[4.ccc\	.
.	.	16f\JJ	.	16ff\JJ	.	.	.
8G\	.	16f\LL	.	16ff\LL	.	.	.
.	.	16e\	.	16ee\	.	.	.
8C\J	.	16d\	.	16dd\	.	.	.
.	.	16e\JJ	.	16ee\JJ	.	.	.
=313	=313	=313	=313	=313	=313	=313	=313
8A-\L	p	8f\	p	8ff\	p	16ccc\LL]	p
.	.	.	.	.	.	16fff\	.
8F\J	.	16c-/LL	.	16a-/LL	.	16aa-\	.
.	.	16A-/JJ	.	16f/JJ	.	16ccc\JJ	.
8r	.	16d-\LL	.	16b-/LL	.	16bb-\LL	.
.	.	16B-\JJ	.	16g/JJ	.	16ddd-\	.
8BB-/	.	8r	.	8r	.	16gg\	.
.	.	.	.	.	.	16bb-\JJ	.
=314	=314	=314	=314	=314	=314	=314	=314
8r	.	16c/LL	.	16a-/LL	.	16aa-\LL	.
.	.	16A-/JJ	.	16f/JJ	.	16ccc\	.
8C/	.	8r	.	8r	.	16ff\	.
.	.	.	.	.	.	16aa-\JJ	.
8r	.	16B-/LL	.	16g/LL	.	16gg\LL	.
.	.	16G/JJ	.	16e/JJ	.	16ccc\	.
8CC/	.	8r	.	8r	.	16ee\	.
.	.	.	.	.	.	16gg\JJ	.
=315	=315	=315	=315	=315	=315	=315	=315
4FF/	.	16A-\LL	.	24cc\LL	.	4.ff\	.
.	.	.	.	24bn\	.	.	.
.	.	16c\	.	.	.	.	.
.	.	.	.	24cc\JJ	.	.	.
.	.	16f'\	.	24dd-\LL	.	.	.
.	.	.	.	24cc\	.	.	.
.	.	16c'\JJ	.	.	.	.	.
.	.	.	.	24b\JJ	.	.	.
4r	.	16f'\LL	.	[4cc\	.	.	.
.	.	16c'\	.	.	.	.	.
.	.	16f'\	.	.	.	8aa-\	.
.	.	16c'\JJ	.	.	.	.	.
=316	=316	=316	=316	=316	=316	=316	=316
4C/	.	16e\LL	.	24cc\LL]	.	4.bb-\	.
.	.	.	.	24b-\	.	.	.
.	.	16c\	.	.	.	.	.
.	.	.	.	24cc\JJ	.	.	.
.	.	16e\	.	24dd-\LL	.	.	.
.	.	.	.	24cc\	.	.	.
.	.	16c\JJ	.	.	.	.	.
.	.	.	.	24b-\JJ	.	.	.
4r	.	16e\LL	.	[4cc\	.	.	.
.	.	16c\	.	.	.	.	.
.	.	16e\	.	.	.	8gg\	.
.	.	16c\JJ	.	.	.	.	.
=317	=317	=317	=317	=317	=317	=317	=317
4F\	.	16f\LL	.	24cc\LL]	.	4.aa-\	.
.	.	.	.	24bn\	.	.	.
.	.	16c\	.	.	.	.	.
.	.	.	.	24cc\JJ	.	.	.
.	.	16f\	.	24dd-\LL	.	.	.
.	.	.	.	24cc\	.	.	.
.	.	16c\JJ	.	.	.	.	.
.	.	.	.	24b\JJ	.	.	.
4r	.	16f'\LL	.	[4cc\	.	.	.
.	.	16c'\	.	.	.	.	.
.	.	16A-\	.	.	.	8ff\	.
.	.	16c\JJ	.	.	.	.	.
=318	=318	=318	=318	=318	=318	=318	=318
4C/	.	16B-/LL	.	8cc\L]	.	8.gg\L	.
.	.	16c/	.	.	.	.	.
.	.	16G/	.	8cc'\	.	.	.
.	.	16c/JJ	.	.	.	16ee\Jk	.
4C/	.	16B-/LL	.	8cc'\	.	8.ee\L	.
.	.	16c/	.	.	.	.	.
.	.	16G/	.	8cc'\J	.	.	.
.	.	16c/JJ	.	.	.	32dd\LL	.
.	.	.	.	.	.	32ee\JJJ	.
=319	=319	=319	=319	=319	=319	=319	=319
16FF/LL	.	4.f\	.	4.ff\	.	24ff\LL	.
.	.	.	.	.	.	24bbn\	.
16C/	.	.	.	.	.	.	.
.	.	.	.	.	.	24ccc\JJ	.
16F'/	.	.	.	.	.	24ddd\LL	.
.	.	.	.	.	.	24ccc\	.
16C'/JJ	.	.	.	.	.	.	.
.	.	.	.	.	.	24bb\JJ	.
16F'\LL	.	.	.	.	.	[4ccc\	.
16C'\	.	.	.	.	.	.	.
16F'\	.	8a\	.	8aa\	.	.	.
16C'\JJ	.	.	.	.	.	.	.
=320	=320	=320	=320	=320	=320	=320	=320
16E'\LL	.	4.b-\	.	4.bb-\	.	24ccc\LL	.
.	.	.	.	.	.	24bbn\	.
16C'\	.	.	.	.	.	.	.
.	.	.	.	.	.	24ccc\JJ	.
16E\	.	.	.	.	.	24ddd\LL	.
.	.	.	.	.	.	24ccc\	.
16C'\JJ	.	.	.	.	.	.	.
.	.	.	.	.	.	24bb\JJ	.
16E'\LL	.	.	.	.	.	[4ccc\	.
16C'\	.	.	.	.	.	.	.
16E'\	.	8g\	.	8gg\	.	.	.
16C'\JJ	.	.	.	.	.	.	.
=321	=321	=321	=321	=321	=321	=321	=321
16F'\LL	.	4.a\	.	4.aa\	.	24ccc\LL]	.
.	.	.	.	.	.	24bbn\	.
16C'\	.	.	.	.	.	.	.
.	.	.	.	.	.	24ccc\JJ	.
16F'\	.	.	.	.	.	24ddd\LL	.
.	.	.	.	.	.	24ccc\	.
16C'\JJ	.	.	.	.	.	.	.
.	.	.	.	.	.	24bb\JJ	.
16F'/LL	.	.	.	.	.	[4ccc\	.
16C'/	.	.	.	.	.	.	.
16AA'/	.	8f\	.	8ff\	.	.	.
16C'/JJ	.	.	.	.	.	.	.
=322	=322	=322	=322	=322	=322	=322	=322
16BB-'/LL	.	8.g\L	.	8.gg\L	.	8ccc'\L]	.
16C'/	.	.	.	.	.	.	.
16GG'/	.	.	.	.	.	8ccc'\	.
16C'/JJ	.	16e\Jk	.	16ee\Jk	.	.	.
16BB-'/LL	.	8.e\L	.	8.ee\L	.	8ccc'\	.
16C'/	.	.	.	.	.	.	.
16GG'/	.	.	.	.	.	8ccc'\J	.
16C'/JJ	.	32d\LL	.	32dd\LL	.	.	.
.	.	32e\JJJ	.	32ee\JJJ	.	.	.
=323	=323	=323	=323	=323	=323	=323	=323
4.FF/	.	4.F/	.	16ff\LL	.	8ff\	.
.	.	.	.	16ee\	.	.	.
.	.	.	.	16ff\JJ	.	8r	.
.	.	.	.	16gg\LL	.	.	.
.	.	.	.	16ff\	.	8r	.
.	.	.	.	16ee\JJ	.	.	.
8D\	.	8F'/	.	[8ff\	.	24bb-\LL	.
.	.	.	.	.	.	24ccc\	.
.	.	.	.	.	.	24bb-\JJ	.
=324	=324	=324	=324	=324	=324	=324	=324
4.E-\	.	[4.F/	.	16ff\LL]	.	8aa\	.
.	.	.	.	16ee\	.	.	.
.	.	.	.	16ff\JJ	.	8r	.
.	.	.	.	16gg\LL	.	.	.
.	.	.	.	16ff\	.	8r	.
.	.	.	.	16ee\JJ	.	.	.
8C/	.	8F'/]	.	[8ff\	.	24aa\LL	.
.	.	.	.	.	.	24gg\	.
.	.	.	.	.	.	24aa\JJ	.
=325	=325	=325	=325	=325	=325	=325	=325
4.D\	.	[4.F/	.	24ff\LL]	.	8bb-\	.
.	.	.	.	24dd\	.	.	.
.	.	.	.	24ee-\JJ	.	.	.
.	.	.	.	24ff\LL	.	8r	.
.	.	.	.	24gg\	.	.	.
.	.	.	.	24aa\JJ	.	.	.
.	.	.	.	24bb-\LL	.	8r	.
.	.	.	.	24aa\	.	.	.
.	.	.	.	24gg\JJ	.	.	.
8BB-/	.	8F'/]	.	24ff\LL	.	24ddd\LL	.
.	.	.	.	24een\	.	24ccc\	.
.	.	.	.	24dd\JJ	.	24ddd\JJ	.
=326	=326	=326	=326	=326	=326	=326	=326
4.C/	f	[4.F/	f	24ee-\LL	f	4.eee-\	f
.	.	.	.	24ff\	.	.	.
.	.	.	.	24gg\	.	.	.
.	.	.	.	24ff\	.	.	.
.	.	.	.	24ee-\	.	.	.
.	.	.	.	24dd\JJ	.	.	.
.	.	.	.	24cc/LL	.	.	.
.	.	.	.	24b-/	.	.	.
.	.	.	.	24a/	.	.	.
8FF/	.	8F'/]	.	24g/	.	8aa\	.
.	.	.	.	24f/	.	.	.
.	.	.	.	24e-/JJ	.	.	.
=327	=327	=327	=327	=327	=327	=327	=327
8BB-/	p	8F/	p	8d/	p	24bb-\LL	p
.	.	.	.	.	.	24aa\	.
.	.	.	.	.	.	24bb-\JJ	.
8r	.	8r	.	8r	.	24ccc\LL	.
.	.	.	.	.	.	24bb-\	.
.	.	.	.	.	.	24aa\JJ	.
4r	.	4r	.	4r	.	24gg\LL	.
.	.	.	.	.	.	24ff\	.
.	.	.	.	.	.	24ee-\JJ	.
.	.	.	.	.	.	24dd\LL	.
.	.	.	.	.	.	24cc\	.
.	.	.	.	.	.	24b-\JJ	.
=328	=328	=328	=328	=328	=328	=328	=328
8c'\L	.	8f'\L	.	8e-'/L	.	8a'\L	.
8c'\	.	8f'\	.	8e-'/	.	8a'\	.
8A'\J	.	8f'\J	.	8e-'/J	.	8cc'\J	.
8r	.	8r	.	8r	.	8r	.
=329	=329	=329	=329	=329	=329	=329	=329
2r	.	2r	.	2r	.	24ccc\LL	.
.	.	.	.	.	.	24bbn\	.
.	.	.	.	.	.	24ccc\JJ	.
.	.	.	.	.	.	24ddd\LL	.
.	.	.	.	.	.	24ccc\	.
.	.	.	.	.	.	24bb-\JJ	.
.	.	.	.	.	.	24aa\LL	.
.	.	.	.	.	.	24gg\	.
.	.	.	.	.	.	24ff\JJ	.
.	.	.	.	.	.	24ee-\LL	.
.	.	.	.	.	.	24dd\	.
.	.	.	.	.	.	24cc\JJ	.
=330	=330	=330	=330	=330	=330	=330	=330
8d'\L	.	8f'\L	.	8a-/L	.	8bn'\L	.
8d'\	.	8f'\	.	8a-/	.	8b'\	.
8Bn'\J	.	8f'\J	.	8a-/J	.	8dd'\J	.
8r	.	8r	.	8r	.	8r	.
=331	=331	=331	=331	=331	=331	=331	=331
24d\LL	.	2r	.	2r	.	2r	.
24c#\	.	.	.	.	.	.	.
24d\JJ	.	.	.	.	.	.	.
24e\LL	.	.	.	.	.	.	.
24d\	.	.	.	.	.	.	.
24cn\JJ	.	.	.	.	.	.	.
24B-\LL	.	.	.	.	.	.	.
24A\	.	.	.	.	.	.	.
24G\JJ	.	.	.	.	.	.	.
24F\LL	.	.	.	.	.	.	.
24E\	.	.	.	.	.	.	.
24D\JJ	.	.	.	.	.	.	.
=332	=332	=332	=332	=332	=332	=332	=332
8C#'\L	.	4r	.	2r	.	2r	.
8C#'\	.	.	.	.	.	.	.
8E'\J	.	8g'\L	p	.	.	.	.
8r	.	8g'\J	.	.	.	.	.
=333	=333	=333	=333	=333	=333	=333	=333
2r	.	8b-'\	.	8cc#\L	p	4r	.
.	.	8r	.	8cc#'\	.	.	.
.	.	4r	.	8ee'\J	.	8gg'\L	p
.	.	.	.	8r	.	8gg'\J	.
=334	=334	=334	=334	=334	=334	=334	=334
8C#\L	pp	8g'\L	pp	8b-'\L	pp	8bb-'\L	pp
8C#'\	.	8g'\	.	8b-'\	.	8bb-'\	.
8E'\J	.	8g'\	.	8b-'\	.	8gg'\J	.
8r	.	8g'\J	.	8b-'\J	.	8r	.
=335	=335	=335	=335	=335	=335	=335	=335
8G'\L	.	8g\L	.	8b-'\L	.	8ee'\L	.
8G'\	.	8g\	.	8b-'\	.	8ee'\	.
8B-'\J	.	8g\	.	8b-'\	.	8cc#\J	.
8r	.	8g\J	.	8b-'\J	.	8r	.
=336	=336	=336	=336	=336	=336	=336	=336
8Cn'\L	.	8f#\L	.	8a/L	.	8aa'\L	.
8C'\	.	8f#\	.	8a/	.	8aa'\	.
8E-'\J	.	8f#\	.	8a/	.	8ff#'\J	.
8r	.	8f#\J	.	8a/J	.	8r	.
=337	=337	=337	=337	=337	=337	=337	=337
8F#'\L	.	8f#\L	.	8a/L	.	8ee-'\L	.
8F#'\	.	8f#\	.	8a/	.	8ee-'\	.
8A'\J	.	8f#\	.	8a/	.	8cc'\J	.
8r	.	8f#\J	.	8a/J	.	8r	.
=338	=338	=338	=338	=338	=338	=338	=338
8BBn'/L	.	8f\L	.	8a-/L	.	8aa-'\L	.
8BB'/	.	8f\	.	8a-/	.	8aa-'\	.
8D'/J	.	8f\	.	8a-/	.	8ff'\J	.
8r	.	8f\J	.	8a-/J	.	8r	.
=339	=339	=339	=339	=339	=339	=339	=339
8F'\L	.	8f\L	.	8a-/L	.	8dd'\L	.
8F'\	.	8f\	.	8a-/	.	8dd'\	.
8A-'\J	.	8f\	.	8a-/	.	8bn'\J	.
8r	.	8f\J	.	8a-/J	.	8r	.
=340	=340	=340	=340	=340	=340	=340	=340
8F'\L	.	8f\L	.	8a-/L	.	8dd'\L	.
8F'\	.	8f\	.	8a-/	.	8dd'\	.
8A-'\J	.	8f\	.	8a-/	.	8bn'\J	.
8r	.	8f\J	.	8a-/J	.	8r	.
=341	=341	=341	=341	=341	=341	=341	=341
8F'\L	.	8f\L	.	8a-/L	.	8dd'\L	.
8F'\	.	8f\	.	8a-/	.	8dd'\	.
8A-'\J	.	8f\	.	8a-/	.	8bn'\J	.
8r	.	8f\J	.	8a-/J	.	8r	.
=342	=342	=342	=342	=342	=342	=342	=342
2r	.	8e\L	.	8g/L	.	8dd-'\L	.
.	.	8e\	.	8g/	.	8dd-'\	.
.	.	8e\	.	8g/	.	8b-'\J	.
.	.	8e\J	.	8g/J	.	8r	.
=343	=343	=343	=343	=343	=343	=343	=343
2r	.	8e\L	.	8g/L	.	8dd-'\L	.
.	.	8e\	.	8g/	.	8dd-'\	.
.	.	8e\	.	8g/	.	8b-'\J	.
.	.	8e\J	.	8g/J	.	8r	.
=344	=344	=344	=344	=344	=344	=344	=344
4B-\	pp	8e\L	pp	8g/L	pp	8dd-\L	pp
.	.	8e\	.	8g/	.	8dd-\	.
[4d-\	.	8e\	.	8g/	.	8b-\	.
.	.	8e\J	.	8g/J	.	8b-\J	.
=345	=345	=345	=345	=345	=345	=345	=345
8d-\L]	.	8e\L	.	8g/L	.	8b-\L	.
8d-\J	.	8e\	.	8g/	.	8b-\	.
8c\L	.	8g\	.	8B-/	.	8ee\	.
8C'\J	.	8c\J	.	8g/J	.	8ee\J	.
=346	=346	=346	=346	=346	=346	=346	=346
2An\	p	24f\LL	p	8c/	p	8ff\	p
.	.	24e\	.	.	.	.	.
.	.	24f\JJ	.	.	.	.	.
.	.	24g\LL	.	8r	.	8r	.
.	.	24f\	.	.	.	.	.
.	.	24e\JJ	.	.	.	.	.
.	.	24d\LL	.	4r	.	4r	.
.	.	24c\	.	.	.	.	.
.	.	24B-\JJ	.	.	.	.	.
.	.	24A/LL	.	.	.	.	.
.	.	24G/	.	.	.	.	.
.	.	24F/JJ	.	.	.	.	.
=347	=347	=347	=347	=347	=347	=347	=347
4.B-\	.	8E'/L	.	2r	.	2r	.
.	.	8E'/	.	.	.	.	.
.	.	8G'/J	.	.	.	.	.
8G'\	.	8r	.	.	.	.	.
=348	=348	=348	=348	=348	=348	=348	=348
8E'\L	.	24g\LL	.	2r	.	2r	.
.	.	24f#\	.	.	.	.	.
.	.	24g\	.	.	.	.	.
8C'\J	.	24a\	.	.	.	.	.
.	.	24g\	.	.	.	.	.
.	.	24fn\JJ	.	.	.	.	.
[4c\	.	24e/LL	.	.	.	.	.
.	.	24d/	.	.	.	.	.
.	.	24c/	.	.	.	.	.
.	.	24B-/	.	.	.	.	.
.	.	24A/	.	.	.	.	.
.	.	24G/JJ	.	.	.	.	.
=349	=349	=349	=349	=349	=349	=349	=349
8c'\L]	.	8F'/L	.	2r	.	2r	.
8A'\	.	8F'/	.	.	.	.	.
8c'\	.	8A'/J	.	.	.	.	.
8A'\J	.	8r	.	.	.	.	.
=350	=350	=350	=350	=350	=350	=350	=350
4.F\	.	2a\	.	2r	.	24ff\LL	.
.	.	.	.	.	.	24ee\	.
.	.	.	.	.	.	24ff\JJ	.
.	.	.	.	.	.	24gg\LL	.
.	.	.	.	.	.	24ff\	.
.	.	.	.	.	.	24ee\JJ	.
.	.	.	.	.	.	24dd\LL	.
.	.	.	.	.	.	24cc\	.
.	.	.	.	.	.	24b-\JJ	.
8C'/	.	.	.	.	.	24a/LL	.
.	.	.	.	.	.	24g/	.
.	.	.	.	.	.	24f/JJ	.
=351	=351	=351	=351	=351	=351	=351	=351
4.G\	.	4.b-\	.	2r	.	8e'/L	.
.	.	.	.	.	.	8e'/	.
.	.	.	.	.	.	8g'/J	.
8C'/	.	8g'\	.	.	.	8r	.
=352	=352	=352	=352	=352	=352	=352	=352
4.B-\	.	8e'\L	.	2r	.	24gg\LL	.
.	.	.	.	.	.	24ff#\	.
.	.	.	.	.	.	24gg\JJ	.
.	.	8c'\J	.	.	.	24aa\LL	.
.	.	.	.	.	.	24gg\	.
.	.	.	.	.	.	24ffn\JJ	.
.	.	[4cc\	.	.	.	24ee\LL	.
.	.	.	.	.	.	24dd\	.
.	.	.	.	.	.	24cc\JJ	.
8C/	.	.	.	.	.	24b-/LL	.
.	.	.	.	.	.	24a/	.
.	.	.	.	.	.	24g/JJ	.
=353	=353	=353	=353	=353	=353	=353	=353
8A\	.	8cc'\L]	.	2r	.	8f'/L	.
8r	.	8a'\	.	.	.	8f'/	.
4r	.	8cc'\	.	.	.	8a'/J	.
.	.	8a'\J	.	.	.	8r	.
=354	=354	=354	=354	=354	=354	=354	=354
24F\LL	.	8f\	.	2a/	.	2aa\	.
24E\	.	.	.	.	.	.	.
24F\JJ	.	.	.	.	.	.	.
24G\LL	.	8C/L 8c/	.	.	.	.	.
24F\	.	.	.	.	.	.	.
24E\JJ	.	.	.	.	.	.	.
24D/LL	.	8C/ 8c/	.	.	.	.	.
24C/	.	.	.	.	.	.	.
24BB-/JJ	.	.	.	.	.	.	.
24AA/LL	.	8C/J 8c/	.	.	.	.	.
24GG/	.	.	.	.	.	.	.
24FF/JJ	.	.	.	.	.	.	.
=355	=355	=355	=355	=355	=355	=355	=355
8EE'/L	.	8C/L 8c/	.	4.b-\	.	4.bb-\	.
8EE'/	.	8C/ 8c/	.	.	.	.	.
8GG'/J	.	8C/ 8c/	.	.	.	.	.
8r	.	8C/J 8c/	.	8g/	.	8gg'\	.
=356	=356	=356	=356	=356	=356	=356	=356
24B-\LL	.	8C/L 8c/	.	8e'/L	.	8ee'\L	.
24A\	.	.	.	.	.	.	.
24B-\JJ	.	.	.	.	.	.	.
24c\LL	.	8C/ 8c/	.	8c'/J	.	8cc'\J	.
24B-\	.	.	.	.	.	.	.
24A\JJ	.	.	.	.	.	.	.
24G\LL	.	8C/ 8c/	.	[4cc\	.	[4ccc\	.
24F\	.	.	.	.	.	.	.
24E\JJ	.	.	.	.	.	.	.
24D/LL	.	8C/J 8c/	.	.	.	.	.
24C/	.	.	.	.	.	.	.
24BB-/JJ	.	.	.	.	.	.	.
=357	=357	=357	=357	=357	=357	=357	=357
8AA'/L	.	8C/ 8c/	.	8cc\L]	.	8ccc'\L]	.
8FF'/	.	8F'/L	.	8a'\	.	8aa'\	.
8AA'/	.	8A'/	.	8cc'\	.	8ccc'\	.
8C'/J	.	8c'/J	.	8a'\J	.	8aa'\J	.
=358	=358	=358	=358	=358	=358	=358	=358
8F\L	f	2c\	f	2e-/ 2a/	f	24eee-\LL	f
.	.	.	.	.	.	24ddd\	.
.	.	.	.	.	.	24eee-\JJ	.
8F\J	.	.	.	.	.	24fff\LL	.
.	.	.	.	.	.	24eee-\	.
.	.	.	.	.	.	24ddd\JJ	.
8r	.	.	.	.	.	24ccc\LL	.
.	.	.	.	.	.	24bb-\	.
.	.	.	.	.	.	24aa\JJ	.
8FF/	.	.	.	.	.	24gg\LL	.
.	.	.	.	.	.	24ff\	.
.	.	.	.	.	.	24ee-\JJ	.
=359	=359	=359	=359	=359	=359	=359	=359
8BB-/L	.	2B-/	.	2d/ 2b-/	.	8dd'\L	.
8BB-/J	.	.	.	.	.	8dd'\	.
8r	.	.	.	.	.	8ddd'\J	.
8B-\	.	.	.	.	.	8r	.
=360	=360	=360	=360	=360	=360	=360	=360
8C/L	.	24g\LL	.	24bb-\LL	.	8ee'\L	.
.	.	24f#\	.	24aa\	.	.	.
.	.	24g\JJ	.	24bb-\JJ	.	.	.
8C/J	.	24a\LL	.	24ccc\LL	.	8ee'\	.
.	.	24g\	.	24bb-\	.	.	.
.	.	24fn\JJ	.	24aa\JJ	.	.	.
8r	.	24e\LL	.	24gg\LL	.	8eee'\J	.
.	.	24d\	.	24ff\	.	.	.
.	.	24c\JJ	.	24ee\JJ	.	.	.
8CC/	.	24B-/LL	.	24dd\LL	.	8r	.
.	.	24A/	.	24cc\	.	.	.
.	.	24G/JJ	.	24b-\JJ	.	.	.
=361	=361	=361	=361	=361	=361	=361	=361
8FF'/L	.	8F'/	.	8a'/L	.	8ff'\L	.
8F'/	.	8F'/L	.	8f'/	.	8ff'\	.
8C'/	.	8A'/	.	8a'/	.	8fff'\J	.
8AA'/J	.	8c'/J	.	8cc'/J	.	8r	.
=362	=362	=362	=362	=362	=362	=362	=362
8FF/L	.	24e-\LL	.	24ee-\LL	.	2aa\	.
.	.	24d\	.	24dd\	.	.	.
.	.	24e-\JJ	.	24ee-\JJ	.	.	.
8FF/J	.	24f\LL	.	24ff\LL	.	.	.
.	.	24e-\	.	24ee-\	.	.	.
.	.	24d\JJ	.	24dd\JJ	.	.	.
8r	.	24c/LL	.	24cc\LL	.	.	.
.	.	24B-/	.	24b-\	.	.	.
.	.	24A/JJ	.	24a\JJ	.	.	.
8F\	.	24G/LL	.	24g/LL	.	.	.
.	.	24F/	.	24f/	.	.	.
.	.	24E-/JJ	.	24e-/JJ	.	.	.
=363	=363	=363	=363	=363	=363	=363	=363
8BB-/L	.	8D'/L	.	8d'/L	.	2bb-\	.
8BB-/J	.	8D'/	.	8d'/	.	.	.
8r	.	8d'/J	.	8dd'/J	.	.	.
8B-\	.	8r	.	8r	.	.	.
=364	=364	=364	=364	=364	=364	=364	=364
8CC/L	.	8B-'\L	.	8e'/L	.	2gg\	.
8CC/J	.	8B-'\	.	8e'/	.	.	.
8r	.	8e'\	.	8b-'/	.	.	.
8C'/	.	8e'\J	.	8b-'/J	.	.	.
=365	=365	=365	=365	=365	=365	=365	=365
8FF/L	.	8f\	.	8a/	.	8ff\	.
8F/J	.	8r	.	8r	.	8r	.
8r	.	8r	.	8r	.	24cc\LL	p
.	.	.	.	.	.	24bn\	.
.	.	.	.	.	.	24cc\JJ	.
8E\	p	[8c\	p	8g/	p	24dd\LL	.
.	.	.	.	.	.	24cc\	.
.	.	.	.	.	.	24b-\JJ	.
=366	=366	=366	=366	=366	=366	=366	=366
8F'/L	.	8c\L]	.	8c/L	.	8a\L	.
8FF'/J	.	8c'\	.	8a/J	.	16gg\Jk	.
.	.	.	.	.	.	16r	.
8r	.	8r	.	8r	.	24cc\LL	.
.	.	.	.	.	.	24bn\	.
.	.	.	.	.	.	24cc\JJ	.
8E\	.	[8c\J	.	8g/	.	24dd\LL	.
.	.	.	.	.	.	24cc\	.
.	.	.	.	.	.	24b-\JJ	.
=367	=367	=367	=367	=367	=367	=367	=367
8F'/L	.	8c\L	.	8c/L	.	8a\L	.
8FF'/J	.	8f'\J	.	8cc/J	.	16aa\Jk	.
.	.	.	.	.	.	16r	.
8r	.	8r	.	8r	.	24cc\LL	.
.	.	.	.	.	.	24bn\	.
.	.	.	.	.	.	24cc\JJ	.
8E\	.	8c\	.	8g/	.	24dd\LL	.
.	.	.	.	.	.	24cc\	.
.	.	.	.	.	.	24b-\JJ	.
=368	=368	=368	=368	=368	=368	=368	=368
8F\	.	16A/LL	.	16c/LL	.	8a\L	.
.	.	16F/	.	16A/	.	.	.
8FF/L	.	16A'/	.	16c'/	.	16ff\Jk	.
.	.	16A'/JJ	.	16c'/JJ	.	16r	.
8F'/	.	16B-/LL	.	16c'/LL	.	8b-\L	.
.	.	16G/	.	16B-'/	.	.	.
8E'/J	.	16B-'/	.	16c'/	.	16gg\Jk	.
.	.	16B-'/JJ	.	16c'/JJ	.	16r	.
=369	=369	=369	=369	=369	=369	=369	=369
8F'\L	.	16A/LL	.	16c/LL	.	8cc\L	.
.	.	16F/	.	16A/	.	.	.
8E-'\	.	16c'/	.	16f/	.	16aa\Jk	.
.	.	16c'/JJ	.	16f/JJ	.	16r	.
8D'\	.	16d\LL	.	16f/LL	.	8dd\L	.
.	.	16B-\	.	16d/	.	.	.
8BB-'\J	.	16d'\	.	16f'/	.	16bb-\Jk	.
.	.	16d'\JJ	.	16f'/JJ	.	16r	.
=370	=370	=370	=370	=370	=370	=370	=370
8AA/L	.	16e-\LL	.	16f/LL	.	8ff\L	.
.	.	16c\	.	16e-/	.	.	.
8FF/	.	16e-'\	.	16f'/	.	16ccc\Jk	.
.	.	16e-'\JJ	.	16f'/JJ	.	16r	.
8BB-/	.	16d\LL	.	16f/LL	.	8ff\L	.
.	.	16B-\	.	16d/	.	.	.
8AA/J	.	16d'\	.	16f'/	.	16ddd\Jk	.
.	.	16d'\JJ	.	16f'/JJ	.	16r	.
=371	=371	=371	=371	=371	=371	=371	=371
8GG/L	.	16e\LL	.	16g/LL	.	8gg\L	.
.	.	16B-\	.	16e/	.	.	.
8C/	.	16e'\	.	16g'/	.	16eee\Jk	.
.	.	16e'\JJ	.	16g'/JJ	.	16r	.
8AA/	.	16f\LL	.	16a/LL	.	8aa\L	.
.	.	16c\	.	16f/	.	.	.
8FF/J	.	16f'\	.	16a'/	.	16ggg\Jk	.
.	.	16f'\JJ	.	16a'/JJ	.	16r	.
=372	=372	=372	=372	=372	=372	=372	=372
8BB-/L	.	16f\LL	.	24a/LL	.	8gg\L	.
.	.	.	.	24g/	.	.	.
.	.	16d\	.	.	.	.	.
.	.	.	.	24a/JJ	.	.	.
8AA/	.	16f'\	.	24b-/LL	.	16fff\Jk	.
.	.	.	.	24a/	.	.	.
.	.	16f'\JJ	.	.	.	16r	.
.	.	.	.	24g/JJ	.	.	.
8BB-/	.	16f\LL	.	24f/LL	.	8gg\L	.
.	.	.	.	24e/	.	.	.
.	.	16d\	.	.	.	.	.
.	.	.	.	24d/JJ	.	.	.
8BBn/J	.	16f'\	.	24c/LL	.	16fff\Jk	.
.	.	.	.	24B-/	.	.	.
.	.	16f'\JJ	.	.	.	16r	.
.	.	.	.	24A/JJ	.	.	.
=373	=373	=373	=373	=373	=373	=373	=373
8C/L	.	16f'\LL	.	16a/LL	.	8aa\L	.
.	.	16c\	.	16f/	.	.	.
8BBn/	.	16f'\	.	16a'/	.	16fff\Jk	.
.	.	16f'\JJ	.	16a'/JJ	.	16r	.
8C/	.	16g\LL	.	16b-/LL	.	8gg\L	.
.	.	16c\	.	16g/	.	.	.
8CC/J	.	16g'\	.	16b-'/	.	16eee\Jk	.
.	.	16g'\JJ	.	16b-'/JJ	.	16r	.
=374	=374	=374	=374	=374	=374	=374	=374
8FF/L	.	8f\	.	24a\LL	.	8aa\L	.
.	.	.	.	24aa\	.	.	.
.	.	.	.	24gg\JJ	.	.	.
8AA/	.	8r	.	24ff\LL	.	16fff\Jk	.
.	.	.	.	24ee\	.	.	.
.	.	.	.	.	.	16r	.
.	.	.	.	24dd\JJ	.	.	.
8C/	.	4r	.	24cc\LL	.	8bb-\L	.
.	.	.	.	24b-\	.	.	.
.	.	.	.	24a\JJ	.	.	.
8CC/J	.	.	.	24g/LL	.	16ggg\Jk	.
.	.	.	.	24f/	.	.	.
.	.	.	.	.	.	16r	.
.	.	.	.	24e/JJ	.	.	.
=375	=375	=375	=375	=375	=375	=375	=375
8FF/L	.	24F'/LL	.	8f/	.	8aa\L	.
.	.	24f/	.	.	.	.	.
.	.	24e/JJ	.	.	.	.	.
8AA/	.	24d\LL	.	8r	.	16fff\Jk	.
.	.	24c\	.	.	.	.	.
.	.	.	.	.	.	16r	.
.	.	24Bn\JJ	.	.	.	.	.
8C/	.	24c\LL	.	4r	.	8gg\L	.
.	.	24d\	.	.	.	.	.
.	.	24c\JJ	.	.	.	.	.
8CC/J	.	24B-/LL	.	.	.	16eee\Jk	.
.	.	24A/	.	.	.	.	.
.	.	.	.	.	.	16r	.
.	.	24G/JJ	.	.	.	.	.
=376	=376	=376	=376	=376	=376	=376	=376
8FF/L	.	8F/	.	24a'\LL	.	8aa\L	.
.	.	.	.	24aa\	.	.	.
.	.	.	.	24gg\	.	.	.
8AA/	.	8r	.	24ff\	.	16fff\Jk	.
.	.	.	.	24ee\	.	.	.
.	.	.	.	.	.	16r	.
.	.	.	.	24dd\JJ	.	.	.
8C/	.	4r	.	24cc/LL	.	8bb-\L	.
.	.	.	.	24b-/	.	.	.
.	.	.	.	24a/	.	.	.
8CC/J	.	.	.	24g/	.	16ggg\Jk	.
.	.	.	.	24f/	.	.	.
.	.	.	.	.	.	16r	.
.	.	.	.	24e/JJ	.	.	.
=377	=377	=377	=377	=377	=377	=377	=377
8FF/L	.	24F'/LL	.	8f/	.	8aa\L	f
.	.	24f/	.	.	.	.	.
.	.	24e/JJ	.	.	.	.	.
8AA/	.	24d\LL	.	8r	.	16fff\Jk	.
.	.	24c\	.	.	.	.	.
.	.	.	.	.	.	16r	.
.	.	24Bn\JJ	.	.	.	.	.
8C/	.	24c\LL	.	4r	.	8gg\L	.
.	.	24d\	.	.	.	.	.
.	.	24c\JJ	.	.	.	.	.
8CC/J	.	24B-/LL	.	.	.	16eee\Jk	.
.	.	24A/	.	.	.	.	.
.	.	.	.	.	.	16r	.
.	.	24G/JJ	.	.	.	.	.
=378	=378	=378	=378	=378	=378	=378	=378
8FF/L	f	24F'/LL	f	24f'\LL	f	8aa\L	.
.	.	24f/	.	24ff\	.	.	.
.	.	24e/JJ	.	24ee\	.	.	.
8AA/	.	24d\LL	.	24dd\	.	16fff\Jk	.
.	.	24c\	.	24cc\	.	.	.
.	.	.	.	.	.	16r	.
.	.	24Bn\JJ	.	24bn\JJ	.	.	.
8C/	.	24c\LL	.	24cc\LL	.	8gg\L	.
.	.	24d\	.	24dd\	.	.	.
.	.	24c\JJ	.	24cc\	.	.	.
8CC/J	.	24B-/LL	.	24b-\	.	16eee\Jk	.
.	.	24A/	.	24a\	.	.	.
.	.	.	.	.	.	16r	.
.	.	24G/JJ	.	24g\JJ	.	.	.
=379	=379	=379	=379	=379	=379	=379	=379
8FF/L	.	24F'/LL	.	24f'\LL	.	8aa\L	.
.	.	24f/	.	24ff\	.	.	.
.	.	24e/JJ	.	24ee\	.	.	.
8AA/	.	24d\LL	.	24dd\	.	16fff\Jk	.
.	.	24c\	.	24cc\	.	.	.
.	.	.	.	.	.	16r	.
.	.	24Bn\JJ	.	24bn\JJ	.	.	.
8C/	.	24c\LL	.	24cc\LL	.	8gg\L	.
.	.	24d\	.	24dd\	.	.	.
.	.	24c\JJ	.	24cc\	.	.	.
8CC/J	.	24B-/LL	.	24b-\	.	16eee\Jk	.
.	.	24A/	.	24a\	.	.	.
.	.	.	.	.	.	16r	.
.	.	24G/JJ	.	24g\JJ	.	.	.
=380	=380	=380	=380	=380	=380	=380	=380
4FF'/	.	4A/	.	4f/	.	4fff\	.
4CC'/	ff	4C/	ff	4G/ 4e/ 4cc/	ff	4g\ 4b-\ 4ee\	ff
=381	=381	=381	=381	=381	=381	=381	=381
4FF'/	.	4F/	.	4A/ 4f/ 4cc/	.	4f\ 4a\ 4ff\	.
4r	.	4r	.	4r	.	4r	.
==	==	==	==	==	==	==	==
*-	*-	*-	*-	*-	*-	*-	*-
!!!ENC: Craig Stuart Sapp
!!!END: 2004/09/06/
